Siegfried19/ROB-GY_7863_Project/train/.ipynb_checkpoints/go2_moon_log-checkpoint.csv
time,qpos_0,qpos_1,qpos_2,qpos_3,qpos_4,qpos_5,qpos_6,qpos_7,qpos_8,qpos_9,qpos_10,qpos_11,torque_0,torque_1,torque_2,torque_3,torque_4,torque_5,torque_6,torque_7,torque_8,torque_9,torque_10,torque_11,roll,pitch,yaw,action_0,action_1,action_2,action_3,action_4,action_5,action_6,action_7,action_8,action_9,action_10,action_11,action_12,action_13,action_14,action_15
0.005,-0.025885438598981528,0.02243120841374738,-0.05499263803967255,-0.025395238401760716,0.023728612118223146,-0.054952832486255536,-0.017503467250844243,0.02624043833474396,-0.046207211045253264,-0.02030864991480154,0.01149921398299091,-0.023947566927173192,-23.7,23.7,-45.43,-23.7,23.7,-45.43,-23.7,23.7,-45.43,-23.7,23.7,-45.43,0.020150071735382292,0.0035397686699558673,0.00209800000676727,-1.1460472,2.3131104,5.628075,-8.069787,-0.5645186,2.3542972,-1.1132907,-0.2921288,4.632467,-1.2583987,1.196651,-0.7521181,6.063561,-9.613949,-10.171315,3.7384422
0.01,-0.044496927913489165,0.05529053893840706,-0.1196447049293793,-0.04272848891629986,0.06014740137720759,-0.11819571784703822,-0.037476583488430165,0.05992623857778176,-0.10515716921184519,-0.04443094100869236,0.03226892011566219,-0.06017239434511053,23.7,23.7,0.9256411336926575,23.7,23.7,20.819846970756323,23.7,21.307794003004695,2.454041944651557,23.7,23.7,-45.43,0.046324777283296266,0.007655742234167429,0.008330156026449632,-3.2295017,2.6381412,1.3322394,0.08568953,2.580851,2.6606212,-0.26800126,-0.2706191,3.2593594,-0.45145744,0.26043907,0.91557175,-0.8606994,2.04592,0.2719525,-3.8882718
0.015,-0.05180423101962584,0.08169227228934771,-0.19614659199836165,-0.0507444930679561,0.09559155172323375,-0.1969036101057675,-0.06051414632092005,0.11312874780867324,-0.1913579274779113,-0.07043833001768632,0.0571723867788415,-0.09630757580178845,23.7,-20.594213742270906,-45.43,23.7,-4.882612338120433,-44.282649346771095,20.08799913733338,23.7,-45.43,23.7,5.887196923980387,-45.43,0.07392994853199374,0.012878416797215797,0.011860041983480524,1.295129,-2.486388,-2.0833857,1.7583292,-0.49269167,-0.93646514,-2.6811066,0.642462,-1.9553003,0.076827765,-8.706956,-1.1415204,-0.6713586,-4.0236487,-0.025589496,-2.3503377
0.02,-0.04724984215339282,0.10875009288487304,-0.26932117555319307,-0.048411156261048915,0.1371613643429099,-0.2711555589018713,-0.08388816094142831,0.1661798644680515,-0.2736370204600822,-0.09557266461139483,0.08676794974977083,-0.13416490510445664,23.7,4.777840962876955,45.43,23.7,23.7,45.43,23.7,-12.59515730285101,6.007545857088907,23.7,-7.678245920497719,-45.43,0.0999451875041016,0.018826436698715865,0.013844190413662388,13.281733,-0.24453127,2.2980177,0.46803227,5.914095,2.2818425,0.22979613,0.7033191,-3.2024093,-2.26825,-1.1962017,-1.2475189,1.4950227,0.105633125,18.789137,1.6262269
0.025,-0.03718969443924928,0.1250384958374145,-0.3405331841543945,-0.0324423365329876,0.1706237417981445,-0.3439364283276879,-0.10075381147291453,0.21720618039892287,-0.34972506458273006,-0.11391952930557973,0.12008644458857379,-0.1739128752745112,-6.21127455460453,-19.93352935468143,9.330934386651473,23.7,-6.4413627948234105,-9.987674010318408,23.7,-23.7,6.314760517636948,23.7,-22.810799791979196,-45.43,0.11757924065739522,0.025001868801084237,0.014888371542682376,-0.06920252,-1.552158,-0.09085357,4.9210577,-0.034956962,-12.566092,0.5961495,-0.32654077,-2.1844301,-1.0270522,-5.5978107,-0.040562153,-0.12040196,-18.64283,0.92864096,-1.8272958
0.030000000000000002,-0.03489669833104176,0.1496199526437922,-0.40438927510919653,-0.022881399640957777,0.20851461684198408,-0.40912909934757424,-0.11475181083413327,0.26257950068612945,-0.4172951043785081,-0.13053840268366904,0.1577000992236735,-0.21681690562552525,-23.7,23.7,45.43,-15.418777074576635,23.7,45.43,23.7,-18.386409801552475,45.43,23.7,-5.741282253322922,-45.43,0.13347582821387916,0.03167052287489169,0.015330610437464275,-1.9615015,0.32303846,1.8449769,0.5502609,1.6466656,0.75054556,1.9743129,0.48017377,1.1985054,1.3024613,0.2916065,-0.78733,7.3111143,0.8604274,-0.24125516,-0.17255735
0.035,-0.024805682344479003,0.1595178173856084,-0.46599332449038766,-0.023242446585971476,0.23040643391790117,-0.4717273776819087,-0.12226210047282586,0.2979568897756731,-0.4770179674346734,-0.14496041201193816,0.19632617104845806,-0.2618874733765323,9.507306130019415,-23.7,-13.213224018372383,-23.7,-19.83607593682945,-14.52881116870045,23.7,-23.7,45.43,23.7,-23.7,-45.43,0.14675529402311,0.04002313445029415,0.015409859781421287,0.45918226,-4.4233193,-0.4790094,-1.0640564,-0.84144855,-3.9431617,-0.41632628,-3.7325656,0.35550088,0.03243789,-4.32035,-2.9924529,0.08098769,-1.1925159,-0.55640846,-4.5301666
0.04,-0.022510812306079278,0.16915421383932458,-0.519431683834862,-0.020851333112889142,0.2507331777212488,-0.5258587764276649,-0.12069262474265112,0.32232427240206446,-0.52946682084655,-0.15622155407293073,0.2388187949419917,-0.30971099546640357,-23.7,6.100307004837887,45.43,5.678965337912629,8.910767548264655,44.95786257741852,23.7,-22.723742116197208,45.43,23.7,-23.7,-7.754101988618395,0.15675108374022262,0.04765481422310858,0.015249595522351389,-0.6666639,-0.7897526,1.3272431,0.0974139,-1.8108988,0.28896576,1.8171654,-0.91174346,1.6292119,0.079627536,-0.93922234,0.7787116,0.14186907,-0.48479542,2.2093816,1.3593124
0.045,-0.01910602754708667,0.18048041648648655,-0.5970236836526481,-0.02898379873767349,0.27745224868199475,-0.5868980292517099,-0.12503496773804007,0.3403695217863252,-0.5768318462941949,-0.16907765736702876,0.2798164126048313,-0.3582623277127786,4.391369861474031,-1.975687452445456,-45.43,-23.7,22.066124140454875,-25.283560006838577,-14.401564433399706,-2.5797193319085316,8.906813811007138,23.7,-23.7,12.750378867500395,0.16897429673676,0.05677641795791821,0.015136721423013963,0.29950014,-3.234605,-1.1524282,-1.8361245,-0.6031453,-8.968856,-1.5345103,-1.4539572,-0.18127537,-0.22597823,-1.5507319,2.146581,2.912157,-1.1148165,-0.3840387,-1.9421688
0.049999999999999996,-0.005945292112103696,0.1834140305575578,-0.6576389618722217,-0.01919984253131951,0.3058655572479189,-0.6355855561055492,-0.11563761264637618,0.3658193263318548,-0.6157829461654163,-0.1729029546904063,0.32296245948195873,-0.4071499209821807,5.22877120997125,-9.091308459279066,45.43,23.7,16.854230946140557,45.43,9.194287703650454,23.7,45.43,23.7,-23.7,-22.059808432418166,0.17124988731597163,0.06338009612202011,0.015096553022520595,0.4446942,-2.4111462,0.8148989,0.18189198,-0.28072843,1.1362562,-0.523435,0.16237241,1.8447577,-0.13567287,-5.012738,0.09080623,-1.1090336,1.0737118,0.22158684,1.0819324
0.05499999999999999,-0.010908593675740434,0.18383179137613165,-0.7039399790300702,-0.0271087509297629,0.32976446252324687,-0.6744182815431716,-0.12558075304152688,0.3929195535650794,-0.650352925574973,-0.18578866584199255,0.3650741029472082,-0.4568069828725647,-23.7,4.851938817728925,45.43,-20.626589556611226,8.78828139624049,45.43,-23.339940173492018,18.748399937169683,5.366104535140811,10.022564901643511,-23.7,-45.43,0.18460927618926926,0.07191873957801498,0.015200652821905511,-0.316188,-1.6840988,1.9939717,-0.14483763,-0.46573737,1.9942746,-0.69886,-0.042594444,0.1535449,-0.6103095,-0.9257843,-1.667998,-0.18274754,1.3393968,0.20738399,1.5371864
0.05999999999999999,0.002842911964092469,0.18488278027839775,-0.7394570263829514,-0.026353638752785874,0.36595856566206203,-0.7429510936334994,-0.11542100217813349,0.43369892363759,-0.7210004943015251,-0.1885133002888176,0.40712323620428675,-0.5057597899738869,21.004994633709956,7.353779119294742,23.91596083371587,-4.389690140900385,23.7,-41.63640582605601,23.7,23.7,-45.43,23.7,-23.7,-0.3591674387188917,0.18642004136831103,0.07885433545743581,0.015305103817802257,0.4423203,-1.7016511,0.4315704,-0.98792577,0.1398881,-3.52711,1.0049567,0.8138316,-2.5080154,1.0447357,0.16559674,0.29346964,0.78528315,-0.4758083,0.29815125,-3.7469792
0.06499999999999999,0.01302050650190322,0.18426406779786836,-0.7665893430957896,-0.01713651840143545,0.4010901733042122,-0.7913157151203534,-0.11436537597672505,0.45201486899053483,-0.7734197744920348,-0.19132426039029385,0.44710202784533093,-0.5532185434270068,-5.279955642008559,3.560136468888256,20.581660791497576,23.7,23.7,45.43,-23.7,-23.7,45.43,23.7,-23.7,-4.2314370187345,0.18843594858723817,0.08570388864130352,0.01528239192636556,0.9722858,-1.1697729,0.7493978,9.645275,1.3361009,0.83103585,-1.2700377,-0.5280583,0.33336645,1.5353187,1.6108392,0.12613359,-1.2907567,5.038293,0.52541906,-0.93006
0.06999999999999999,0.015409071294755695,0.1843133765495305,-0.7868771313412697,-0.007777628169152088,0.4323029159880138,-0.8302434754298079,-0.11417803344111745,0.46819082557751424,-0.8125858740426509,-0.19407466800505344,0.48700676857764885,-0.6001762558676291,-17.130318838858024,4.610703058675227,18.172070561005064,5.796490074416784,10.038428589728047,-11.387688340006463,-3.6321548050427754,8.966937517653587,-5.067964995526943,23.7,-23.7,-45.43,0.190669606960497,0.09217952615194935,0.0152359388065985,0.21527115,-2.7953427,2.4316077,0.9258259,0.24938169,-2.4216125,-0.57098925,-1.1623318,-2.175642,0.08317112,-0.15358418,-1.9115472,0.5873283,0.6166761,0.633663,-1.6861966
0.075,0.009009486217538082,0.19335601738661345,-0.8468255747517006,-0.0015314771293324005,0.4630057197826495,-0.8553175589469577,-0.1020087963551675,0.4896413566636333,-0.8377802489179724,-0.19454784094070457,0.5280544494674726,-0.6470945322234425,-23.7,0.9956216225440784,-45.43,-8.549910163366903,23.7,45.43,23.7,23.7,45.43,23.7,-23.7,-45.43,0.190491563549874,0.09750398270350513,0.015001325172436825,-1.3620368,-2.2446132,-0.7724459,0.370346,0.9745612,0.9339595,0.7706283,-0.11665571,1.2746949,0.75383997,-4.517469,-3.1804645,0.78311026,-0.6182045,1.7554655,1.797684
0.08,0.01421332200285531,0.17598894201238874,-0.8304935705443574,0.0003188958619060665,0.496806532664686,-0.9098236707428775,-0.08939147118775564,0.4968646314432136,-0.8134008082511646,-0.19664767346612771,0.5685344753170426,-0.6936563397450533,23.7,-15.07502162961099,45.43,-1.5779539900993171,-11.392081498057092,-45.43,6.07930591883029,3.4016850612096157,37.20083429844059,-3.9483180829574636,-23.7,-10.267091032510328,0.19193635775161685,0.10327010149969862,0.014643794707729973,1.6127684,-0.7884918,3.9762793,0.42665622,-0.9558137,-1.9302455,0.8256309,-1.080853,1.0936227,-1.1623611,-2.7100964,-0.24673206,-1.0540774,0.004973769,-0.429557,0.76360905
0.085,0.022015340976180006,0.18469930701272624,-0.8735492324382468,0.00311815868215872,0.514145048502388,-0.928439537898138,-0.07471839591181886,0.5262770438244355,-0.8504955217336047,-0.19505146530760395,0.6088113204504454,-0.7387112605919782,11.186449123151322,23.7,-45.43,-19.690526421456198,23.7,45.43,8.08904388988052,23.7,-45.43,-0.5201147084696451,-23.7,16.081631201116153,0.19034995643596053,0.1071040618497292,0.014890140945978972,5.7451386,-1.120785,4.637569,-0.7022126,2.3201542,0.15788332,3.6919925,-3.0718513,-0.31897843,-1.1698644,-2.7681541,0.23953485,0.3295889,-0.49348325,-2.346925,4.79214
0.09000000000000001,0.022738514258970347,0.1883354852950453,-0.9275838190224921,0.0033429880405829327,0.5487286382812931,-0.9874258431346782,-0.07532758732011487,0.5506940241871938,-0.8505838178840599,-0.19743191984030725,0.6430849659240413,-0.7810847727569123,-9.467660978620586,-5.126538655190911,-28.922880934319515,-6.872381184263691,23.7,-45.43,-23.7,23.7,24.140930720280956,23.7,-23.7,45.43,0.19301386757322467,0.11362442186902122,0.014915652389685619,0.38211128,-0.25942194,-2.1415045,-0.07089308,1.3009653,-1.4539956,-0.27376306,0.7011833,0.17483653,2.3545742,-0.41337973,1.3006834,1.3330836,2.3091636,-0.16546601,-0.50146437
0.09500000000000001,0.020498984997155655,0.19219734469825403,-0.9161405305856073,0.012806842144395371,0.57343098318296,-1.016501724787828,-0.056043554589841144,0.5746280521298901,-0.8602213331669278,-0.18902427712294273,0.6808749564942459,-0.8208469376574742,-23.7,23.7,45.43,23.66615354872374,-22.73337920811215,45.43,22.129808148543628,-2.596698966408308,-12.721907257447029,15.026562863770435,-23.7,-39.18761704767696,0.1830705285632964,0.11317088069098902,0.014878637277741164,-0.8319265,3.449831,1.9395608,1.9079748,-1.1786531,2.010267,0.53285044,-1.0545336,2.7260542,-0.36824587,0.5925858,-1.0147653,-0.88165575,-0.16492425,-1.2915647,2.186456
0.10000000000000002,0.022232495468241728,0.2131935127911134,-0.9577458951731422,0.023203562653911797,0.5950564641528591,-1.036809632893914,-0.05271179102778131,0.5986116568012622,-0.8597769841596918,-0.18829062114105516,0.7241580399786667,-0.8807647900348928,17.12075269835497,15.136218484376485,-45.43,-9.862839610031527,23.7,45.43,-23.7,12.985624414649312,6.979590445785746,-10.687431490626322,-23.7,-40.073402996485946,0.17218260892754272,0.11374550781954129,0.013191287602045076,0.652828,0.37575933,0.5555972,0.40359166,0.5466114,2.4457679,-1.2180402,-0.35904384,2.9759939,-0.506082,0.50870883,-2.1281796,2.4192734,0.96890515,0.8085588,-1.221818
0.10500000000000002,0.019811862807246415,0.20643773956386724,-0.9502694537708601,0.030777310830582813,0.617384532516255,-1.063047493761549,-0.061936126034753874,0.6209872594788681,-0.8730356005172577,-0.18842073482689814,0.7529290932810354,-0.9238132398680503,-7.90347056639887,-23.7,25.81114052520462,-10.936833948415288,5.700800820428665,-5.442859887459502,-8.654719313318735,9.549710476413798,-13.603147075578043,-7.1472668440445695,-23.7,6.604331235401823,0.164554500624859,0.11980257261567373,0.010979983602421,-0.05924823,0.29394484,0.059512973,0.47966018,-0.8474097,-0.123651594,-0.3405649,-0.47100988,2.0013766,-2.635851,1.8890492,-1.4715503,-0.0013730973,-0.29332495,-0.59285104,-0.005089879
0.11000000000000003,0.009621311938804769,0.21124217049260624,-0.9929188071476766,0.044063888800218005,0.6369141400748616,-1.0803609268088925,-0.0635543629626023,0.6434761646540845,-0.8699287265191407,-0.179823860224801,0.7773671023420796,-0.959696885305432,-21.675728320102287,-0.9806691839906136,-45.43,6.3105799249679535,23.7,45.43,1.7780899787887776,15.896690386932104,12.738286966421594,16.62870518608576,-23.7,-22.442004526861275,0.14979691954301913,0.12359527840847706,0.009154746090575566,-1.0757288,-1.1782904,0.5318059,1.1532359,3.5124264,1.6403928,-1.7847928,-0.31231308,0.95591605,-0.06910499,-3.4131367,-1.0477877,-1.7523584,-3.1276922,5.7052727,-0.31952024
0.11500000000000003,0.0041141597079620545,0.1932045927814092,-0.9931126079240509,0.05243023878994678,0.6716482915417272,-1.1297395680140325,-0.06252558976616532,0.6694236302043557,-0.9037126119860693,-0.1817754289264575,0.7956856943241031,-1.0030930279668961,10.57449251355365,-23.7,19.383286001345567,-23.7,5.732579200172957,-45.43,21.52392713304161,7.06511400090565,-36.25478307013711,-23.7,-23.7,-32.78343475219728,0.14056489856980878,0.13054783709003304,0.006969871664831234,-0.3368665,-2.4923623,-0.22269177,-0.24134624,-0.9772706,-1.8082771,0.4671424,-0.6436279,0.61359626,-1.027316,-0.66424465,-1.1344459,-0.91117495,0.23623776,0.78291506,-0.025220394
0.12000000000000004,0.010187762015532077,0.19949868134647478,-1.0431108861807412,0.06720392727696066,0.690234558859108,-1.1516697661722142,-0.06243986854108159,0.6900128157468471,-0.8858202513215002,-0.17955098654921262,0.7916549159438802,-1.0053235862354526,23.7,20.028758338931585,-45.43,2.608041771636465,-23.7,45.43,-18.13182880821579,23.7,45.43,-2.5030853341299455,-23.7,17.314294845400546,0.12386517131797561,0.1359115668633657,0.002760858170147519,8.607599,-3.2811584,-0.08029708,1.4018791,-1.9811507,1.9769717,-0.9793505,1.7731843,1.4298263,-2.4781828,0.08060139,-0.33255547,0.4779985,-0.86257315,-0.6883199,-6.103859
0.12500000000000003,0.009625226641291722,0.17831061121998285,-1.0210367312763118,0.06862557475357342,0.7203525769914818,-1.1973758776244707,-0.07096420845814187,0.7254065944036866,-0.9229765824831642,-0.18850519514874317,0.7904672420171348,-1.0460577384236815,-4.219715456091453,-23.7,45.43,-23.7,14.729037494222672,-32.14483415076446,1.217495552383082,18.002508123858387,-45.43,-11.098613152034556,-23.7,-45.43,0.11652590942537927,0.14218914722292575,-0.0015071762823113052,0.4156579,-1.3039525,2.8734818,0.13660522,-0.56390697,-1.6197002,-0.24303274,-0.25769883,1.1722068,-1.047849,-0.24245423,-0.21137375,-0.81362605,2.25405,2.9473495,2.8445036
0.13000000000000003,-0.0021432836309085556,0.1859706570274987,-1.0607696135057545,0.07441099787264038,0.7353747301992941,-1.2085143456028542,-0.0614579682925391,0.7432669016311692,-0.9002216144377617,-0.18997210047356922,0.7677419099494591,-1.0187943730492584,-23.7,23.7,-45.43,-5.9873178941630245,23.7,45.43,23.7,6.108454437123386,45.421258999337304,12.13505718142412,-23.7,45.43,0.10428847547918774,0.14549864529187628,-0.004458270086232875,-7.901291,2.9850101,0.428411,0.11791793,1.8569295,2.037592,1.727719,0.5908818,0.54994726,-4.4355817,1.7732213,0.57332206,-1.5785273,-1.5109968,2.3880057,5.317449
0.13500000000000004,0.0037888925689864494,0.16811053009142765,-1.0381173934093582,0.08509893130436694,0.7559516880444267,-1.2462448503071122,-0.055093149463063915,0.7783737965322699,-0.9364595795012857,-0.1888622067243441,0.7473890908912154,-1.0463901840572907,23.7,-23.7,39.49106933180344,5.628934743556247,9.171066701699392,-30.063558593626148,-1.3404315605692787,18.95844532037418,-45.43,-2.709860071945215,-22.260001412909396,-45.43,0.08882687775002437,0.14989258879725464,-0.008398087600635679,1.1837579,-1.2009305,0.1614731,2.6468616,-1.0414518,-0.5850607,0.44664013,-0.31422347,0.8813303,-1.1290331,-0.61112356,0.6519653,1.2525067,-0.14959109,-0.30302697,-1.9762053
0.14000000000000004,-0.00730219498194357,0.1743775965706763,-1.076151152168051,0.08915518890506788,0.7680409383592884,-1.240286140433228,-0.0485872922988978,0.7921472347225265,-0.9066207149849167,-0.18552123160070572,0.7272232890815639,-1.0994324863431217,-22.9629487380401,17.86161997509954,-45.43,-5.229966979091465,23.7,45.43,2.26186673765355,-4.183075992617616,45.43,9.632217231329388,-21.34482895601857,-38.53976283052951,0.07697764282846802,0.1531058208454994,-0.011535647618986997,-0.4119795,-1.511733,2.2607596,2.2620134,1.7257626,1.7263196,0.35976356,0.2751271,1.1359456,-0.25647354,-0.42042097,-1.4680243,-0.7700819,-1.4282398,2.968528,6.172996
0.14500000000000005,-0.013591300178427825,0.16589259844344267,-1.1074056961899865,0.08799228552770086,0.7830104631604329,-1.2342485068842342,-0.049187994616849286,0.8183200066960125,-0.9364511085653062,-0.19011299621464825,0.6927544736538984,-1.1101844122294464,9.830683658965135,-23.7,-14.234266137457972,-12.564119224673375,17.512340688849463,10.028093167202819,-5.094808443375376,7.6533898149520745,-45.43,-9.965407460506352,-17.82818327908659,18.110954334325626,0.06686673652649723,0.15703760746561457,-0.01463181964639565,-0.51110244,-1.5538949,-1.6594028,0.14748235,-0.8278504,1.141421,0.0881685,-1.6850379,0.58760023,-0.880464,-0.3089649,-3.6970813,1.7882342,-0.3045907,0.33633524,-1.7925053
0.15000000000000005,-0.004291592838248221,0.16334986003983332,-1.082779612526602,0.08776178393338291,0.7983066118109206,-1.2239276290143317,-0.033891950498450965,0.8543393541582782,-0.9693881382932925,-0.18839705646424598,0.6845660536290928,-1.1431129432086988,23.7,23.7,45.43,-17.397799823214456,6.813272718973774,8.80745654400085,23.7,23.7,-13.373911614245419,3.5156060387281123,23.7,-19.625131050357574,0.05210421128106366,0.1567386439906251,-0.017323484036737648,1.2492491,0.1739986,1.646708,-0.50226164,-1.2473286,1.4527928,2.9372346,3.3824599,-0.41179138,-2.5124025,1.7419434,-0.002631545,-2.5216556,2.915295,1.6806512,5.0049887
0.15500000000000005,0.002215611379255385,0.1727534182162112,-1.1167072083320164,0.08676403474690739,0.8305346511093156,-1.2679787266676958,-0.025155627277631907,0.872559567279643,-1.0133307838267773,-0.1928833954255427,0.6628716414528153,-1.175577747910174,4.542056262870478,6.423326105542312,-45.43,0.06575281284509771,23.461963685637436,-45.43,-2.515204846356415,-21.590493622874682,-31.052782064295776,-9.27986219497506,-23.7,-16.82598837102757,0.04079194183697117,0.16009784392107718,-0.020234075687783577,7.3499904,-0.12936136,-2.1865318,0.31195104,-0.2268514,-1.4340711,8.489593,-0.14258075,-1.6465976,-3.3388758,-0.30506977,-1.0480869,-1.0958943,4.2497764,1.5872706,-3.2764688
0.16000000000000006,-0.0050501314344731305,0.17487760394785698,-1.0912399874246905,0.08108320654970791,0.8511456744922447,-1.2557564941578225,-0.03122554065669776,0.8856261591750374,-0.994831398644894,-0.19161312331803407,0.6244214235572871,-1.1468331365249973,-23.7,7.979884498312298,45.43,-2.676855817267365,15.828113619589136,45.43,-23.7,16.81713891006839,45.43,23.7,-23.7,45.43,0.033357535511747964,0.16174651951439123,-0.023283318678711994,-1.1006398,1.2867105,0.7134273,0.12700795,3.2735143,1.4040085,-0.507951,0.03695631,1.2217827,1.284001,-2.4031503,0.39065397,0.7398639,-0.9567306,1.1571627,2.9893794
0.16500000000000006,0.007791048452561471,0.17321962064921173,-1.1182864103349177,0.09819491680453335,0.8699844106042252,-1.2503118389227885,-0.013504791634961714,0.9062854961702793,-1.029836895330408,-0.1629460711840432,0.6177855194883004,-1.1828340142484481,19.947637871896163,-23.7,-45.43,23.7,2.573172170028373,-2.8109104086710275,23.7,1.4858039974037176,-45.43,23.7,23.7,-45.43,0.009820612691346316,0.16396204808963,-0.024730269826706678,0.24933189,-1.2981646,-1.0468816,4.5964565,-0.46294588,8.330006,0.719725,-1.2362278,-0.2337702,1.1785383,0.48101094,0.53045535,0.37944236,0.5052253,-1.0155846,-1.0550541
0.17000000000000007,-0.0055985362891384,0.16854517997043703,-1.0891084652604188,0.08835722374199392,0.8969999973331539,-1.242905308501067,-0.02301951721647512,0.9280427367414882,-1.0227519150966573,-0.16996264478292833,0.5896719287721427,-1.1542342392608897,-23.7,10.039177999180147,45.43,-23.7,23.7,8.09483615531341,-19.704007188852827,23.7,29.641826771126897,-23.7,-23.7,45.43,0.006505180299815979,0.16414451684001374,-0.027273255114093127,-1.80163,0.1703701,2.644627,0.041613415,1.9034635,0.96403015,0.564858,1.0029051,0.1428587,-1.8772933,-0.99719584,0.18931684,0.13699652,0.89434826,0.30504286,1.2733725
0.17500000000000007,-0.0019250046670490992,0.1687733337953698,-1.1161424664678636,0.0809930569257467,0.9323941440792511,-1.2634472509222077,-0.026905319775422695,0.9616644309147918,-1.039003228586103,-0.15526937013158748,0.5912496584117529,-1.1903336197926118,23.7,-11.17603026143818,-45.43,-11.860829688754823,19.939220430770977,-24.042862382379646,-1.36909055495995,23.7,-16.77887654861685,23.7,23.7,-45.43,-0.004792659623416922,0.16541742838243745,-0.029201353761879774,0.24199435,-16.92079,-1.2542179,-4.835538,1.3850764,0.36966267,-2.500377,5.1618986,2.361248,1.0972049,3.7502806,0.32623762,0.48907095,-0.78234655,-2.4206357,-6.0176005
0.18000000000000008,0.007667654576205928,0.17365116693696475,-1.137419786201631,0.06192000773963832,0.9439996177021449,-1.2254761326063375,-0.018702778112134798,0.9658856645676225,-1.00874299558786,-0.15543547937113944,0.5753886232888452,-1.208069974818372,15.548519888793178,12.947154465446795,-3.5494572177264487,-16.074054726347075,-9.488133763916847,45.43,18.589181865093174,-23.7,31.04835888022354,-23.7,-23.7,-1.710447898033479,-0.015102404300993844,0.16749410066185022,-0.03159088685539124,2.3465,0.42598462,-0.44059646,-1.964715,0.62128836,1.6415495,0.30084926,-0.84401697,1.5730107,-1.4549882,-2.2164598,-0.9625173,-0.7086579,-0.3811469,0.74052185,1.1733006
0.18500000000000008,0.018682548759805163,0.15504482794304525,-1.0996631635853933,0.061574111637493344,0.9635511569845923,-1.2479852240790081,-0.008649994228276845,0.9931160110216695,-1.04165517634912,-0.15976572821498913,0.5409290442558419,-1.175552574730984,-4.106444801183958,-23.7,45.43,20.67777714322201,-1.7840269371334792,-45.43,10.157309185952165,23.7,-45.43,-8.816348285096627,-23.7,39.001784772803774,-0.028832625740272403,0.16901882088176268,-0.034451546600551455,0.71045375,-3.7180715,0.9112008,-0.5176555,-1.4409809,-0.31430626,2.085857,0.38898778,-0.265732,-1.6376656,-1.2162541,0.69268644,-0.43770573,1.4601107,0.4146363,-1.4527371
0.19000000000000009,0.021106953675038467,0.1651843992032667,-1.1288634669764028,0.042479227847705,0.957818727409028,-1.2094726162104343,0.002515341215725853,1.0088573089414785,-1.0139201013391368,-0.16289204076833497,0.5392685268856415,-1.2090686776878374,-1.1831525693337603,23.7,-45.43,-23.7,-20.051634694067513,45.43,5.444540981266552,9.034265559025574,45.43,-0.048038816956466945,23.7,-45.43,-0.03856368729347122,0.16919298266614402,-0.036684570456874815,9.065484,10.544634,0.9114732,-1.7748089,-2.1136618,1.6291854,2.7716298,3.208601,3.3109956,-5.9525433,1.2754092,0.5139003,5.1859226,0.98900276,2.949527,0.83765095
0.1950000000000001,0.027947938229721712,0.1480125754402433,-1.0958630209244216,0.0452415392072445,0.9771303149114754,-1.238663003486978,0.0033909756368583712,1.0216962857676646,-1.0399186072999798,-0.15791769257034705,0.512207244235083,-1.179275103486585,-1.1100419177138807,-23.7,45.43,23.7,23.7,-45.43,-15.501176499659113,-17.51332101744131,-45.43,15.219516392590926,-23.7,45.43,-0.051268274058723466,0.17226200367466582,-0.03923346163194668,0.28799072,-0.9393679,1.1033249,0.42423886,-0.7094933,-1.1176876,0.25759965,-1.0727242,0.59789485,-0.26778042,0.11696136,0.16834223,0.5949079,-0.5736617,-0.49604845,-1.5758387
0.2000000000000001,0.01843466644394502,0.15890586514440236,-1.1286465635593432,0.04579680752034837,0.973973877130085,-1.2212689262708811,-0.011215376980959016,1.053525471254144,-1.1022036045284458,-0.14166931853637713,0.5162858327394708,-1.214561867723577,-23.7,23.7,-45.43,5.783045621641408,-22.162761388574555,28.96251125853989,-23.7,23.7,-42.07985784796994,23.7,23.7,-45.43,-0.062045956680583,0.17386999371416367,-0.04132248543011844,-3.662836,4.8760195,0.04536748,0.62731075,-1.0932148,-0.014216006,-2.4265356,1.6199329,-5.179353,2.8591597,0.16634572,0.76719177,-2.7210093,-0.6570943,-7.1062784,1.7181033
0.2050000000000001,0.02119107597259107,0.14639950958099637,-1.1125557991966968,0.03585420134756735,0.9916933817265392,-1.261025216816025,-0.0086431189349789,1.0528888256934417,-1.0954367308140507,-0.14321044503233618,0.49361786106799904,-1.1842205606635507,23.26483458575425,-23.7,31.016022253921978,-23.7,23.7,-45.43,23.7,-17.400148121669012,36.27018496602725,-23.7,-23.7,45.43,-0.07056405917367103,0.17742540520391037,-0.04374777392311079,0.2967432,-1.187846,-0.011135578,-1.53528,0.3359492,-4.944868,0.692539,0.61381346,-2.2009678,-0.20713687,-0.7762122,1.1978754,0.17089346,1.3382573,0.18953942,-1.2501812
0.2100000000000001,0.032921742965936765,0.1610110591535142,-1.153515870156262,0.041223101505611544,0.9847307855335773,-1.2337404110456982,-0.002044446319018409,1.0722730147090294,-1.1096831440994475,-0.14000587672487974,0.4967277504222754,-1.21582130900221,15.132629314618919,23.7,-45.43,23.7,-22.181705515770314,45.43,0.5052003129979226,23.7,-13.41511634639793,-7.232146535678147,16.7233321040955,-45.43,-0.08700239708503091,0.17794331106021533,-0.04651655597177504,2.6613314,-0.1375975,-1.4433624,3.6785107,-2.0491047,1.258976,0.16244559,1.3625352,0.97093785,-2.4998465,-0.13182208,-0.73093677,1.9815878,-0.19018662,-3.3395605,10.889148
0.2150000000000001,0.02905253200027506,0.15446590146670816,-1.142813820192643,0.03287612721359323,1.0022212825079584,-1.2686808303696473,-0.022762340590804557,1.0939378677216027,-1.1621587811589735,-0.15789596385797827,0.48408620030387867,-1.2374068813613959,-15.579262424502492,-23.271663280270396,45.43,-11.070820212676573,23.7,-45.43,-23.7,0.6610761393795723,-44.73529925948053,-17.026303568108858,-23.7,-6.674893516112434,-0.08655355594011183,0.17911589505868641,-0.049657719980262666,0.510211,-0.121611,1.2621557,0.12116184,-0.799475,0.27678788,-0.8387553,0.4890919,-0.6653084,-1.2235886,-1.2563099,-1.3685786,1.4356121,1.4436963,-0.13265598,-1.3325647
0.2200000000000001,0.025025133675829456,0.17121746140759395,-1.1729902633104647,0.047011494877783756,1.0192949315167046,-1.2459986616246208,-0.014581007235132674,1.1009876257125626,-1.1458447801856984,-0.15560691905840707,0.4556236094070841,-1.2019407685884949,-19.76485884446471,23.7,-30.066119617450642,23.7,22.378532346078668,45.43,23.7,4.858161748330016,45.43,23.7,-20.707174339231287,45.43,-0.09840083792077338,0.17852147451537625,-0.051398813225169024,-4.9395328,2.440514,0.49872786,1.1207818,3.705546,2.6554513,0.3950349,3.974198,1.8583802,3.4834967,-3.2980947,0.97313243,-0.22745194,-0.82639176,-3.909819,5.308055
0.22500000000000012,0.024991344116523487,0.18658218119964493,-1.2077035908018492,0.051837181086596254,1.0324427693492657,-1.2748256849132098,-0.016510296346102953,1.1059777240600583,-1.1792088509929497,-0.1534862528274771,0.4505241132519406,-1.2314488373314236,23.7,-23.7,-12.960550692292792,-8.395578136115564,-13.479070400095424,-45.43,-9.16744546209257,-15.319877750544244,-45.43,-5.229847980246742,16.51635513411515,-45.43,-0.10714431664046818,0.18023329143458255,-0.053650842091493636,1.1244168,-1.3037786,-1.1449187,2.691814,-0.42112574,-14.304311,0.20509763,-1.509992,-1.3660517,-0.64709467,-0.9395808,1.2908981,0.7473761,2.277585,-0.8456873,-1.3216827
0.23000000000000012,0.03257590825764109,0.20315261978026078,-1.222727050472769,0.05632755878130016,1.044989023852691,-1.2474394914849851,-0.012647084600382389,1.115208307375722,-1.1567679555280372,-0.14217002410272334,0.4335090741491922,-1.2022798302684705,20.415804542605496,3.1539324346880733,45.43,-9.359348608934088,23.7,45.43,3.6034182007488456,23.7,45.43,23.7,-10.07113866271069,45.43,-0.1197443873886638,0.17713522637211576,-0.05617759761980739,15.848637,2.7059524,1.0051936,0.19506758,7.232156,2.5382922,-0.11640632,1.5567815,0.9675478,1.0227551,-0.1712789,1.5477602,-0.86716235,-0.6025121,-0.75484073,0.8180561
0.23500000000000013,0.034120138752439716,0.2099550778860385,-1.2241918739875577,0.061854122203130774,1.0524989541277712,-1.2715967911888908,-0.0032713051675273015,1.1170495676741181,-1.1832703915527671,-0.1380198512827578,0.4438238903688502,-1.2359931097967507,-9.69226465167047,-23.7,45.43,9.913569306736719,-23.66657693564629,-45.43,18.06536554287167,-23.7,-45.43,-8.36029727313194,23.7,-45.43,-0.12435268364126545,0.17168124845967303,-0.056967432161940716,0.4034403,-0.40368593,4.297713,11.200358,-1.3380781,0.7784201,1.8571907,-3.984102,-0.048349917,0.037225246,0.24744532,0.37344617,1.1406971,2.2444599,-0.37185788,-1.8677648
0.24000000000000013,0.03526387923099712,0.22210470402540078,-1.2210853028554878,0.05004593384231526,1.0373372542252852,-1.2357218139088448,-0.011613185336592873,1.123976336943746,-1.1591077885423813,-0.12934103400772454,0.43710268388222395,-1.2087805096983204,6.734436168829435,14.748099876540554,26.783036681592243,-23.7,-15.988676453711758,45.43,-23.7,23.7,45.43,23.7,-9.29310098542646,45.43,-0.12635888256029143,0.16489572111107353,-0.059196860665387555,0.59217703,0.7312069,2.4151223,-1.2318759,-2.9469895,1.6115468,-3.2167315,1.4711446,2.2555037,3.2565055,2.7496462,0.37354493,1.0616865,-1.4097238,-3.8861842,2.10568
0.24500000000000013,0.036797920558616776,0.2395388794286701,-1.2493639096063787,0.058394440608634364,1.0521137511797396,-1.2661410906540027,-0.021782738373389073,1.1562852079678854,-1.1930625978121359,-0.1184614978816815,0.45303220838916075,-1.229241449047566,-5.801230600711532,-11.245578862325287,-32.96117916643931,23.7,23.7,-45.43,-5.084407885433784,23.679622332916757,-45.43,2.166445575395545,23.7,-31.742909329541455,-0.12920495773705137,0.1574226966324377,-0.060317602875878354,0.033044368,0.06307757,-0.11513993,13.835466,-1.4995761,-3.67867,-1.4468815,4.2588406,-0.16333419,0.3105692,1.4809649,1.6982462,2.5267963,0.37916008,-0.6778311,-3.0811005
0.2500000000000001,0.024224541471278213,0.2477597130456632,-1.2439668411496436,0.043318787928936744,1.0594837326100144,-1.2395118939471592,-0.026177236916394547,1.1578779347165449,-1.1753039449539986,-0.12686101186488669,0.456534842583162,-1.2256177822059868,-23.7,0.49989555187779544,45.43,-23.7,13.31349667183375,45.43,22.44120300772952,-23.7,33.932604789609876,-23.7,-23.7,15.07445756175214,-0.11889478931123187,0.1500672378608685,-0.060563138402649264,-1.0190998,1.764796,0.7275583,-0.93352926,2.0696464,2.543563,-0.03442228,1.7456539,0.075871706,-2.3472419,-6.9828997,-0.1211026,-1.4533939,0.98042876,18.859352,-0.15322793
0.2550000000000001,0.039255286653434654,0.24538163985271472,-1.2842424645948611,0.05539388692454257,1.0594235464418142,-1.266940815712908,-0.01634705326120141,1.1696341366766587,-1.195363632743444,-0.11886651926912556,0.4502612985929125,-1.208226781715555,23.7,-23.7,-45.43,23.7,-21.961929250358413,-45.43,7.750661041817679,-20.24684009778089,-45.43,23.7,-23.7,17.815512349305706,-0.12905257458418187,0.14991882600103512,-0.06241797131323911,0.7644736,-2.9236038,-1.2882533,2.2291358,-1.0315354,-0.04828286,-0.18409985,-3.9229472,0.1684009,1.3619616,-0.4169194,1.2805569,-4.5388026,-1.6152728,-1.0089052,0.037109613
0.2600000000000001,0.03294566884930832,0.24470313699240429,-1.2695461722467514,0.04037026488156194,1.0496855469949193,-1.237136296169757,-0.020165859522705304,1.1954625705575908,-1.2437480024387504,-0.13156935809929146,0.4571140255745067,-1.2100090881595418,-23.7,23.7,45.43,-23.7,0.4431104460692801,45.43,-0.9756786074140749,3.604933222692754,-43.170572096551005,-23.7,-4.834858480985378,-11.13301185952205,-0.1235601502902778,0.14801188327421722,-0.06403030901641936,-10.728299,3.9562724,2.2830787,0.13152233,-0.5955974,0.68947506,0.6910114,1.7670631,-1.0685606,-2.6163256,-0.50527704,1.3637764,-0.2647099,1.0365502,1.3077847,0.6951666
0.2650000000000001,0.04813773051124298,0.26374401016983573,-1.3114187185605444,0.05381602767423273,1.0650620125199568,-1.27106115154666,-0.009798145444756148,1.1956761199391197,-1.2516199250734303,-0.1310871516229613,0.46044306062944795,-1.2061341807768242,23.7,23.7,-45.43,23.7,23.7,-45.43,8.226070875597628,-23.7,18.008407206729693,14.225189480512245,-7.6143005170525875,11.134891160045871,-0.13254219832998232,0.15015736444209704,-0.06682663944751832,0.6383698,0.31325284,-0.100062184,0.02763635,-0.36706328,-0.24115622,-0.087154076,0.49568897,-2.2973015,-1.8680696,0.42396605,0.6353563,0.7389498,-6.9048986,0.056980163,0.2257812
0.27000000000000013,0.04045123291892595,0.25675733504509823,-1.3020526962292254,0.03922417214060752,1.0583796369300786,-1.24953616714406,-0.022127169856824044,1.1812704872620317,-1.229936568402693,-0.14960660176314328,0.46871842058139485,-1.2231063547815735,-23.7,-23.7,29.572754667973804,-19.11956020349259,-14.917983295962536,38.46510510662769,-23.7,-14.178077588292771,28.338991191831926,-11.846099392814875,-15.717725487258356,-26.989154784053447,-0.12520453301759357,0.15419188960269126,-0.07008904604897398,-0.7522179,-1.1731472,-0.95335805,0.5296687,0.26649517,0.03315267,-0.3035109,-0.4307418,2.8660314,-0.98691905,-0.29494244,0.047334258,-0.11089483,-1.1277113,-0.6625046,1.9795907
0.27500000000000013,0.05267258837716039,0.2528668959851789,-1.2873273112683183,0.055207331650070024,1.0581605292995389,-1.268316817920165,-0.012587420952449028,1.186219831453833,-1.258789310398643,-0.14575988914289367,0.459353814616472,-1.2102906744652215,5.089723600424389,10.87261407383738,15.17403070303008,23.7,-0.9545258721492367,-30.93715783353999,23.7,0.7092192991007735,-45.43,23.7,-23.7,45.43,-0.13894763696081625,0.16144876433910316,-0.07467973255300975,-0.23949641,-2.1744761,4.117872,0.63413656,-0.93697536,5.728562,1.2234328,-1.0413079,0.41745773,0.6376974,-3.4562528,2.4830866,-0.16175526,0.6715449,0.2175582,-0.865038
0.28000000000000014,0.040066936554060247,0.26136385097045656,-1.2893916338742843,0.04305856881433902,1.0662448887371248,-1.260967411820678,-0.027512009368442857,1.1849934617705324,-1.28824877858042,-0.16404017788202105,0.4674225203495861,-1.2125350695373125,-23.7,23.7,-2.639139827093814,-23.7,23.7,23.050327691677087,-23.7,-23.7,-20.371986611776947,-17.339934890925814,23.7,-4.052160763350393,-0.1331171671357208,0.1680666651300513,-0.07828035338438293,-1.2416973,4.656098,0.8706251,-0.3343874,5.640688,0.37824667,-2.517963,-0.6148176,-1.145176,-4.8613825,0.64107186,0.9250216,-2.7747636,-1.3837388,-1.5352988,1.5192199
0.28500000000000014,0.052076208685060715,0.2661793269594049,-1.3022104442249172,0.058842419281950664,1.058051084991921,-1.2544144136683963,-0.014015205338020196,1.1723215552403816,-1.2873134771507762,-0.15692164242384116,0.454742621788362,-1.1846837751572707,23.7,-15.735515513703781,-5.642839424221832,23.7,-23.7,-1.9351378173446534,23.7,-8.686633098074456,19.232143818211483,23.7,-23.7,29.9353638983516,-0.14907029596609597,0.17713128124275745,-0.08287561841488539,0.27163517,-2.208548,0.055608302,0.9101503,-0.5498369,6.930273,0.3472399,-0.065200284,-0.21458516,0.12682283,-3.4714715,1.6438193,-4.502158,-12.23753,-0.7457235,0.061808586
0.29000000000000015,0.042751771455999385,0.27090225598155826,-1.302889999669379,0.047218972466958324,1.066878050424864,-1.2952656906604776,-0.028152333690554726,1.1596017380650596,-1.2821539981312604,-0.17750333498275164,0.4700315976984364,-1.2198339790856358,-23.7,18.832034343239265,45.43,-22.082207367402013,3.503796265566729,-45.43,-19.42488760963547,-9.191992272381524,3.0217829425069027,-22.684845843831596,23.7,-45.43,-0.14009719221327255,0.18275839731070098,-0.08678413982437826,-1.3428173,0.062332034,2.5754688,0.6299492,-0.56856763,-2.2696233,0.24165657,-2.400642,0.7735266,-1.3609385,1.1371142,-0.30900973,1.6476076,0.58758026,-2.7729125,1.3470894
0.29500000000000015,0.04325215606708413,0.2791631376941409,-1.3022802958293085,0.05572587766364069,1.0503730710757764,-1.268587529402593,-0.028882409580850935,1.1605446245784656,-1.297653732659673,-0.17817565798121568,0.47398825065191147,-1.194090352667735,-5.832567263502522,3.8582703249987294,36.255657112701584,21.88949100773214,-23.7,45.43,7.786637964759311,7.458245755429561,-17.646235323285268,23.7,0.7480967478245368,45.43,-0.14239884970273223,0.18493396360401215,-0.0897449026907735,-0.8358277,-0.6656866,2.5792956,0.1252045,-1.3366792,0.7074553,-2.471609,-0.24683917,0.52024806,1.592958,0.93494016,1.0778763,-0.7347059,-1.0258652,0.32276165,2.7476125
0.30000000000000016,0.04386467973697053,0.29629016962329957,-1.3414850503187963,0.0639082181675155,1.0502532647839344,-1.300974132183203,-0.03711384595149112,1.1550360063306233,-1.3449771586147208,-0.16494836717139172,0.4711361640283988,-1.2083733473785585,-3.2557184214269244,-5.9657598016967235,-45.43,1.4670766840504506,5.481142217353259,-45.43,-11.82647789512426,-23.7,-44.01959798550609,23.7,-20.220621598896685,-32.24569182092828,-0.1452990645187884,0.19270031745823424,-0.0932563420725167,0.10226756,-0.8573499,-1.4087152,2.068926,-1.7729154,-14.590876,-0.69739854,-1.5077546,-1.9255309,0.99817324,-1.0902618,0.890999,1.3685079,-0.2626583,-0.0568673,-0.80863744
0.30500000000000016,0.04533259998625086,0.3117085890175779,-1.3595473595661314,0.06554895233958734,1.0492984776120384,-1.2785439656850044,-0.025358470680943265,1.147421775980919,-1.328351057396718,-0.15912285171486412,0.4766509343304334,-1.1749323959288371,17.779467692155194,6.337146409665872,45.43,-14.620309642730186,17.455305767787255,45.43,23.7,8.637769827277285,45.43,-3.708195608650903,23.7,45.43,-0.14837322229040056,0.19347181667904967,-0.09564616563400422,3.6259527,0.36967286,1.9372002,0.3302184,1.3759799,0.8433082,0.14328952,0.6153213,1.256574,0.27681714,2.2595313,1.2829213,2.055683,0.18432347,0.94720924,1.0120308
0.31000000000000016,0.04811593768664123,0.3196012016599138,-1.3646646050095395,0.07531863395894907,1.046546084914989,-1.3064162753648598,-0.021175647885320167,1.149088552734988,-1.3500534204451686,-0.1432202440652288,0.49291858978888325,-1.2002643727590807,-2.505932174494302,-21.54008068823682,23.621119251753576,14.12750947186298,-23.7,-45.43,-5.570247905841267,1.7456433641199238,-30.776151774285058,23.7,2.657459178867518,-44.313089121981115,-0.15303363261367958,0.1948790112574288,-0.09822814655954014,0.22055027,-3.9161003,-0.17838013,33.670437,-1.2817206,-0.33664966,0.6388516,0.22898638,0.64465153,1.6048858,-0.11879847,2.159253,0.4476816,7.1048403,-0.5526227,-0.04929942
0.31500000000000017,0.03891267606884243,0.3238202606701303,-1.351866090461295,0.06080498462360619,1.025018712705437,-1.2740010593982045,-0.03992246583709513,1.1506815892471312,-1.3672878918678444,-0.14498232197825503,0.5124808150316889,-1.2306857339755188,-8.849133618430304,9.06450622013883,45.43,-20.739407575374564,-16.856116135470476,45.43,-23.7,-1.5355773269422066,-4.923808578096608,-9.214624834460734,8.784235620419391,-14.98044144421712,-0.1434608177029388,0.19362582314709376,-0.10099360016493639,0.07372484,-0.4262259,3.32699,0.257961,-0.4554805,1.9152132,-2.861851,0.9965501,-0.5189238,0.358089,2.1908417,-1.3061025,-0.8605942,-0.609375,0.32713872,1.856441
0.3200000000000002,0.05016126287000326,0.3340677423643358,-1.365687692627732,0.06733873671826603,1.0278246159670368,-1.3035252446670826,-0.0315348095603668,1.1517999015143874,-1.4104804467453584,-0.1259117649546156,0.5120836578782473,-1.2001694510838212,23.7,5.164109895789398,-20.393858139543603,6.267963728665659,16.840069529914395,-45.43,23.7,-4.238485932235278,-34.0833612294116,23.7,-8.088699756090156,45.43,-0.15061791911294464,0.19408910701165172,-0.10403642681713204,0.8608007,-1.3492588,0.22376114,-0.71100277,-0.5919219,2.4599438,1.0130532,2.5535274,-1.2332714,0.6868541,0.5316278,0.5703665,1.0593069,0.2937935,0.20938545,-0.28360116
0.3250000000000002,0.04448769777522051,0.3408405649684977,-1.3548718384549208,0.04585754335417267,1.0077992080895743,-1.270310761595625,-0.04374399292613048,1.1408943120934125,-1.389615164571985,-0.13261160367494287,0.535132878619992,-1.22185558089914,-3.9386331228862907,23.7,45.43,-23.7,-23.7,45.43,-20.818138885143593,-7.7669892660240585,45.43,-23.7,23.7,-35.664473661868165,-0.14005235506039118,0.1905521939984376,-0.10747905258448844,5.988918,0.8527535,0.6351622,-3.5306325,-2.5352104,2.3536997,-0.30892998,0.9337397,1.8722968,-1.1124388,0.86454844,1.0124294,2.221274,0.4324882,10.392122,2.5388193
0.3300000000000002,0.06148798737422266,0.3521318266351332,-1.3693060495031535,0.054961191505555104,1.0037979561407884,-1.2977622227703296,-0.029821574902014168,1.1250791160443405,-1.4191757132481317,-0.11647849188624557,0.5409858027840196,-1.2485834193728822,23.7,3.9627525511557806,-19.387096621640094,23.7,0.27844068963784707,-45.43,23.7,-23.7,-45.43,19.185466197257604,-23.7,-19.903008942117204,-0.14808126881434475,0.18979591888147773,-0.11164528037758348,0.95897317,-2.1257384,0.14942229,0.34450263,-1.0403954,-3.1455045,0.07685138,-0.85406625,-0.9973192,-0.312106,-1.2720761,-4.0512547,0.56712496,1.259125,-0.14813532,-1.6816697
0.3350000000000002,0.06083471657584549,0.3597483933534348,-1.3529764160895987,0.04228773096324867,0.9995817044973996,-1.2691358419379717,-0.024773492933602526,1.1107896809183386,-1.3931072410650407,-0.11520669800853975,0.5531132609000241,-1.2232281187332583,-23.7,23.7,45.43,-23.7,13.20735382818063,45.43,-1.131267798953079,7.78710344346877,45.43,3.050214852151832,23.7,45.43,-0.14270922479046572,0.18425042565775995,-0.1144271214243169,-3.214638,0.94044495,1.1209364,-0.0980919,5.521169,1.862093,1.0408281,0.286075,0.7917045,1.3882952,1.3854773,1.5199921,1.1526693,1.4848183,-0.42752934,1.6802775
0.3400000000000002,0.05956349310952724,0.37603619747700856,-1.3906576026351662,0.04843835756517684,0.993111302371695,-1.29526879522032,-0.020754277756059463,1.094098510925315,-1.4203043983800685,-0.09993445714555463,0.569521581270508,-1.231832906876726,-8.000620841510335,6.03446626676266,-45.43,23.7,-23.7,-45.43,-2.8528528343238397,-23.7,-45.43,18.234729551162047,5.321586009832178,-22.959023081105506,-0.14372641705989228,0.18139035156136152,-0.11743580566119093,-0.13668346,-1.5288645,-3.0424662,1.9125504,-1.097798,-3.4746163,0.20175819,-4.240089,0.2323651,0.38995528,0.16647212,1.245861,1.0834179,-0.0345425,-2.1615162,-0.5231581
0.3450000000000002,0.07130581581432963,0.3870072999537618,-1.36690268906591,0.05070427844647853,0.9666903763294208,-1.2716678998560103,-0.020901223767389836,1.089039617292471,-1.3966102864177212,-0.08942425865012439,0.5763787325390042,-1.207191037828677,20.34888814121311,11.259841472710004,45.43,-4.5002661071005985,-23.7,34.305947790604385,-8.683539348446828,23.7,45.43,3.2117545081145344,17.698632303740336,45.43,-0.14716999691226726,0.17622075325203146,-0.12137630115130113,2.5110157,-0.09824311,2.1186578,0.5361862,-3.54541,0.27500394,-0.11214119,1.4843198,2.1237338,3.452149,2.148727,1.2882907,-0.71144176,-0.30930772,1.1174074,1.1270044
0.3500000000000002,0.061088066126058625,0.4126129943267608,-1.386897881220746,0.056264746834230814,0.9605519694226771,-1.2961815443975988,-0.031306285401909044,1.0966413424049624,-1.4259827538058676,-0.0963371058916159,0.5953557281906784,-1.2385577392694587,-23.7,18.035103558050817,-31.647695395299564,13.987996081657702,7.462068301163885,-34.54461029757022,-5.499166856047285,-1.6702331290220265,-45.43,-23.7,6.692415372929659,-45.43,-0.14160434263853533,0.17008629934808672,-0.12516623258073634,-0.085931204,-0.33358735,0.42333817,1.1284696,-0.9336155,10.221243,-0.32799354,1.3990096,-0.044707716,-1.1112554,-0.36031508,-0.7465937,-0.8775153,-1.0112615,-0.56451505,-1.0596646
0.3550000000000002,0.049831510171754655,0.4256033644913699,-1.3531678251591353,0.04492592115056142,0.9298627455579107,-1.2608357234287992,-0.036740174519807864,1.07707178992951,-1.4014384442662642,-0.10467482462825066,0.5938090129639783,-1.2261279799893525,-9.216872771023624,4.977307910633428,45.43,-22.29866925609878,-23.7,45.43,7.854110520840093,-23.7,45.43,-0.08416046281515221,-4.890862517843403,45.43,-0.13451960218047948,0.1664545645017863,-0.12899976400136487,-2.076339,0.34025013,1.5195771,-0.22762968,-1.3323187,0.89796764,-0.6721606,1.329253,2.2700875,-1.1894853,0.13555416,1.5264595,-4.296057,0.58306646,-1.4682295,2.6609225
0.3600000000000002,0.05862073222851187,0.4565594539677019,-1.381914235085143,0.04660279580075671,0.9284902277014467,-1.2913473922597272,-0.02187717937124879,1.068762804591125,-1.425977196740681,-0.09035394551522173,0.6144144660808715,-1.2696956364444112,23.7,23.7,-45.43,-3.357457674020978,23.7,-45.43,23.7,-23.7,-45.43,23.7,23.7,-45.43,-0.13965756027900297,0.16518051734810268,-0.13158166735174112,0.3863809,0.97330123,0.47206414,-0.90041053,-0.50734013,19.394747,2.0930119,-3.8238964,0.38299233,0.14062989,0.9689404,-0.166543,0.42590284,1.932673,-0.009319566,-1.1662316
0.3650000000000002,0.04767901587086272,0.45815502805091535,-1.3477784765490437,0.03721999914558091,0.905231579449735,-1.2647960525248028,-0.029143666853691613,1.0477488519764375,-1.402840296613875,-0.10139205116047442,0.6063346883367541,-1.2478260651422186,-23.450350055096756,-23.7,45.43,3.8709769063114443,-23.7,41.76169863608657,-23.7,-5.970479467636462,45.43,-23.7,-19.788243299573644,45.43,-0.13117734955992147,0.16443253522974732,-0.13535870988689505,-0.010908127,-0.5122423,0.007747799,0.5119703,-7.745914,0.24850217,-0.29784268,0.81051576,1.3080772,-1.5537963,-0.50874615,1.2122164,-0.59090066,-1.8471522,0.24195324,4.4910927
0.3700000000000002,0.049938756905167456,0.4807626496824981,-1.3594471840656939,0.054683185883575555,0.9066544302317889,-1.2979447117688372,-0.015140714426908133,1.0504644949759216,-1.415829499495426,-0.09607478065727451,0.6188265349172565,-1.253308959843771,9.2643125022572,23.7,-28.50573926931076,23.7,13.067278273766362,-45.43,23.7,19.059164564414303,-22.84860241721976,8.809456731785122,23.7,-13.9686059421798,-0.1360165929951149,0.1613736957763343,-0.13835430287333259,-0.3436818,-0.04148844,1.0262034,0.39433715,-0.22297218,0.40762818,0.48029664,0.8206145,0.9398877,-2.3842034,0.27093816,1.9646721,-1.2435069,0.7071414,0.6997863,-1.0318766
0.3750000000000002,0.030904674785693576,0.49335711242300434,-1.3891147551285787,0.04361618439689229,0.8837551283051549,-1.26855063180747,-0.02328572970748675,1.0288236358849348,-1.3809728147961229,-0.11177864933397279,0.643299147021177,-1.2961473031034176,-16.577308598446276,-12.904856660572868,-26.73905887058807,-17.033429984592136,-23.7,45.43,-23.7,-23.7,45.43,-23.7,17.94387770724463,-37.33937931002765,-0.12360073048708482,0.1599837347582891,-0.14140497416332526,-0.31234974,-0.84124994,-1.5969738,2.238925,0.2720629,0.67189544,-0.20588298,2.4139898,2.4935908,-1.7725811,0.18928055,-0.72738,-0.5114528,-1.2745693,-2.5614643,2.3346019
0.3800000000000002,0.041999481330253025,0.49523280519134616,-1.361941267265778,0.059591208154054484,0.8712879373042429,-1.2967362808037883,-0.018021806070249044,1.020005682651781,-1.3979597095442426,-0.10269325893902445,0.6576273303645527,-1.276778485363732,23.7,4.736369218592547,45.43,23.7,-9.237914919152892,-45.43,8.42439192347156,-23.7,-45.43,23.7,13.385867031946926,45.43,-0.127709984276583,0.16074257765657096,-0.14451461355576942,0.13201529,-3.7262378,2.7430222,0.75672287,-1.0208592,0.18084317,-0.41398853,-1.0858397,0.97434133,0.5097636,1.6233139,0.34478587,0.1617294,-0.4994583,-0.55098295,0.4154023
0.38500000000000023,0.023943455149991934,0.5189154465456782,-1.3946787780553656,0.053504825036670985,0.868742717539068,-1.3161867666357974,-0.03513352464143359,1.009300055811728,-1.4205028579406709,-0.11715960362101976,0.6844022825752132,-1.2746719086321983,-23.7,23.7,-45.328892939588364,-14.63494762129491,15.958830777495233,0.9820535220121727,-23.7,-23.7,-18.770925969458364,-23.00790780552856,23.7,-6.581516418337891,-0.1145788558677521,0.16175500773996587,-0.14723506209960716,-1.556915,0.4482973,0.30322883,4.7136164,4.6829596,-0.57263047,-0.9110135,-2.2310193,-0.73723125,-0.65536845,2.5817418,1.7174577,2.1820118,0.83008873,-0.3575173,0.9183948
0.39000000000000024,0.03466958092680251,0.5181588383571496,-1.365082589535102,0.05576660018372756,0.8419512098649309,-1.277985277582952,-0.02922619313467332,0.9840386687626042,-1.3968836169338423,-0.11076052040629959,0.6858126200770865,-1.2393800588038073,23.7,-14.881038507597399,45.43,1.0143791260277872,-23.7,45.43,23.7,-10.1423719344129,45.43,17.416579540353187,-23.7,27.521693701039343,-0.11605249000516005,0.16486896553771335,-0.1500225494128718,0.2557342,-1.813908,1.3992205,-0.22531539,-1.7387252,2.6187944,-0.34169275,0.73637843,1.3017237,-1.065465,-1.4715754,1.5297359,2.2051868,-0.21162271,-0.46666083,-0.68593764
0.39500000000000024,0.026961521988798975,0.5394590939507096,-1.3928376086477492,0.06305868531937185,0.8325597131642191,-1.3018064113385732,-0.02286342399593916,0.9708524712859007,-1.4214544574399803,-0.10874185958153854,0.7102667067199323,-1.2679177258293188,-23.7,23.7,-40.39170926524144,13.090748271763722,-4.8545905832413645,-45.43,14.298914884196407,-22.12357772303523,-45.43,-9.636583321856845,23.7,-45.43,-0.11389903610857555,0.16806631838880448,-0.15183674278660902,-0.91237766,1.3342081,0.5213513,7.3130455,-1.4455999,1.1387868,2.2203534,-1.6166666,-2.4322453,-0.35542238,0.20437711,-0.18542127,8.558654,2.483307,-0.5547725,0.07310334
0.40000000000000024,0.03445620107645419,0.5443886723002115,-1.3844458372455244,0.05669762417337795,0.8015837276712635,-1.2739541712974032,-0.019183423928295605,0.9387915866819052,-1.399431684204515,-0.10609300484478662,0.7038892662266802,-1.2332004306519173,23.7,-7.305051502302877,21.885273397883978,-22.02853484938046,-21.17820237470603,40.95106642880724,-3.671909440510981,-16.950963789708666,45.43,5.555199591075706,-23.7,45.43,-0.11232034385535394,0.17445825615793864,-0.15454855944113938,3.0652955,-1.6930286,-0.68823683,-0.024872288,-0.15881246,0.47295249,0.30870503,0.28283787,3.2505836,-0.0772442,-1.7375257,0.27849555,1.3860756,-2.8037543,0.74058163,1.0724499
0.40500000000000025,0.03555652639136849,0.5646877319944462,-1.3936055441655568,0.05977686344126391,0.7944973599145804,-1.3013497162297631,-0.023819708455166004,0.9224094883708343,-1.4319320856541813,-0.107936368150549,0.7230979979148738,-1.2626860081545883,-3.6797013383587593,23.7,-11.15540336984993,15.345497416699573,5.398818890705474,-40.96923289634905,-7.730594294226641,-8.724504597747998,-45.43,-10.376119730823724,23.7,-45.43,-0.10809521134852551,0.1793364070572272,-0.15724401004295996,0.59778446,0.3031079,0.20016257,0.37472248,-0.8914626,2.31518,-0.071778536,-1.8113592,-0.12866409,-0.6867298,0.70081353,0.3686458,3.0852833,-0.2774238,-0.85008454,-0.5228369
0.41000000000000025,0.02079378040939809,0.5804732288399373,-1.4125694790308831,0.053039142430120395,0.774373363137227,-1.2950446231475776,-0.02794960934276032,0.899543988028013,-1.4085208294284506,-0.11930405247773716,0.7224225218042618,-1.2530839142995673,-23.7,-3.252333207771681,-15.002732000750544,-11.313874191011532,-21.25426799765372,20.5122040009217,3.9810663296402504,2.0522245672925656,45.43,-8.594393917084655,-16.91270378773226,22.611001862982654,-0.09858786191533207,0.18454212243266865,-0.1599475815687806,-1.3549258,-1.2943597,-0.6710765,0.061077356,0.064864635,-0.14548874,-0.2973937,0.80352473,3.273188,-4.329412,-1.8832531,-0.44977015,-1.2194822,-1.320189,1.6738894,1.076203
0.41500000000000026,0.03244241439631566,0.5880489643122938,-1.3783093343618362,0.0641008792758181,0.770644897847523,-1.3361784841713806,-0.010902836903935495,0.8839879461768948,-1.4125365947891082,-0.10482569849583952,0.744829294618467,-1.297676486648047,23.7,6.360395344443287,45.43,10.601915767490802,0.9656629657794156,-45.43,23.19480917439079,-6.2983223059438025,-18.0415402049207,23.7,23.7,-45.43,-0.10217123385541568,0.18903487624364912,-0.16196989432161865,1.286762,-1.4350371,1.5605624,0.13045147,-0.09140432,-3.3624573,0.5401417,-0.101106,1.6282656,-0.06579499,0.5476912,-3.373816,0.4634865,1.1535491,0.9891833,-0.5712135
0.42000000000000026,0.035070632910035815,0.6152313439645688,-1.4067790405801337,0.06501213762536691,0.7410772801211288,-1.3165901556178041,-0.01377757866469069,0.8616108328546638,-1.4368267582568137,-0.09509292093299151,0.7374478125551998,-1.2734022943375591,-2.145596616874389,23.7,-45.43,-6.486486091404203,-23.7,45.43,-23.7,-23.7,-24.01568677772614,5.921774682380963,-21.24170729471818,45.43,-0.1030861936879212,0.19611724951048437,-0.1649351515255741,5.334942,0.6686255,-3.1340113,0.95961976,-0.22155714,0.17220278,-18.522915,-2.9393573,-0.3548231,2.7575474,-3.8963223,1.4564388,0.16296887,-0.3131219,0.74405634,1.1370897
0.42500000000000027,0.03637865685197977,0.6280171217083436,-1.3754377998919298,0.06811028848738872,0.7429047126658168,-1.3560047155793813,-0.018271182090341502,0.834200751960305,-1.4066180016487564,-0.09522188196626576,0.7513385862241634,-1.2822566697676923,2.5629414833110893,-0.3703825764941371,45.43,4.859113621706298,23.7,-45.43,-3.3605459492922654,-4.906724334688105,45.43,-10.270418951086079,23.7,-18.932684127933136,-0.09724608269831582,0.20108331621528208,-0.16756289712352362,0.44715077,-0.34686103,1.237965,0.5869963,0.11399479,-5.8495016,-0.4117645,0.010052741,2.1043882,-0.044013694,1.0622454,1.0933818,-0.34779036,2.0910757,0.73853874,-0.8353281
0.43000000000000027,0.0218293233279635,0.6612099824454154,-1.4056941234939995,0.06974259676308572,0.7201531659101519,-1.3333050319504764,-0.03139831785764454,0.8158976598690604,-1.419807130261156,-0.09339639114733782,0.7684451040967886,-1.3294180778404958,-23.7,23.7,-45.43,9.932263461617492,-23.7,45.43,-13.64608090526426,-8.450089119041236,-30.820193534540657,2.167859150270523,-0.9910480243416693,-43.00110167966265,-0.09108037353013312,0.2055868775218066,-0.17036292396795114,-8.272103,-0.072123885,-0.95283335,3.1144814,-6.609708,0.044466913,-2.715935,-0.6002455,2.3040304,-0.35327667,-12.972045,-1.2923743,3.0275588,-0.56175137,1.5087125,0.8859175
0.4350000000000003,0.03134474840438069,0.6639151498363811,-1.3717679417429798,0.076866342422834,0.7157455272548923,-1.365491965262382,-0.025808727384838914,0.8094491127681471,-1.4487518298590243,-0.08690445037622208,0.7786242888767102,-1.313039761743035,23.7,-23.7,45.43,-6.79274327221759,4.188819988689166,-45.43,23.7,11.307117453041666,-19.139050490464356,4.741533528608388,13.335205241761432,45.43,-0.09252473304355402,0.20982563475992277,-0.1726010196429581,0.8111147,-1.8967564,0.79113746,0.17874633,-0.07973233,-0.8012102,0.67968893,1.309303,-0.69048977,-0.07330291,-0.12728056,0.3147084,1.6473547,0.8400409,-0.08397176,-1.5702157
0.4400000000000003,0.013385779159899296,0.6894232234206619,-1.4001149327910254,0.06427998208596,0.6954023301439737,-1.3536453222355567,-0.027574104692837435,0.7934535688603277,-1.4538533090525605,-0.0995507238709224,0.8095287331822301,-1.3516233662285904,-23.7,23.7,-45.43,-23.7,-23.7,35.07734736224246,0.1418238189740748,-13.436800120489739,10.05387294140256,-23.7,23.7,-45.43,-0.08084658640206385,0.21231183439084056,-0.17397860666529438,-2.9142048,-1.0752783,0.5866183,-4.480131,-1.3522925,-0.2222246,0.40330303,1.1287385,-0.8135738,-1.3510234,1.1645,-0.78467524,0.9033902,-0.79896975,-4.1871247,2.4390125
0.4450000000000003,0.02436103091282803,0.6910269188622241,-1.368224261847166,0.0708077806476026,0.6793078995933808,-1.3912496492469804,-0.025467835098317057,0.7748642737714477,-1.4573883434260033,-0.08946457633814033,0.8226908917518725,-1.3499008924575342,23.7,-12.998793980506814,45.43,22.548308786864766,-23.21351432268113,-45.43,-7.413875222299403,-8.92672130911783,0.2600451845455297,23.7,-3.924072794262269,22.257813543759802,-0.08265035722418738,0.21774568405006467,-0.17662206177707607,0.91139853,-3.664802,0.4448368,0.19611453,-1.9080224,-0.5200833,-0.5425195,0.38342714,0.0006608814,-0.32144815,0.34506387,-2.0085592,0.59289277,1.9406087,0.06358903,-2.290068
0.4500000000000003,0.013279029896150573,0.717750860652918,-1.397906227474635,0.06869589003422255,0.6661537097272449,-1.3753087004408109,-0.012402277691737988,0.7622177968352327,-1.418408950057724,-0.08784313732246432,0.8574025227651096,-1.3968631616662839,-23.7,23.7,-45.43,-6.465576572955603,15.840180275556232,45.43,21.165612806352755,11.274271934323554,43.28431640516172,-9.449123862756508,23.7,-45.43,-0.07985012812801404,0.2189074229450918,-0.17788475306572024,-2.2136488,0.5152212,0.11402914,0.61347806,1.6937786,0.51490176,8.259615,2.5094833,1.5677316,0.0383157,0.37607777,-0.78296924,0.33042178,-0.52772474,0.5985741,0.26168215
0.4550000000000003,0.018719284073325695,0.7171477664045304,-1.3657173751943943,0.05986705918235852,0.6513415704871578,-1.4090312151230184,-0.021369629137240945,0.7465210356483424,-1.4378215145377222,-0.09995380463703278,0.8555705255698345,-1.3730411440043848,23.7,-15.4625781953775,45.43,-11.074582986668247,-23.7,-45.43,-23.7,-23.7,-45.227796728181694,-15.044935493604264,-23.7,45.43,-0.07395525891339057,0.22440277052339508,-0.18113510709709701,0.79492104,-2.0803647,2.0863037,-0.3180493,-0.87699866,-0.10622373,-0.34770012,-0.9498777,1.0361757,-0.90621847,-3.6936996,0.062065125,-0.19485456,0.06926003,-0.3221767,-0.5187938
0.4600000000000003,0.03462978164413516,0.7380497862552459,-1.3825891827362153,0.06879368162713655,0.617567833012231,-1.3829061658683253,-0.002353505477142661,0.7129652857726625,-1.4014607544333018,-0.0914129294421406,0.8715525821044193,-1.372934276181898,11.858966514952629,23.7,-32.30742890609796,23.7,-23.7,45.43,23.7,-23.7,45.43,11.428118369475644,23.7,-10.79477733730856,-0.08199507527649244,0.22867767939202754,-0.1835174306707655,1.4198918,6.390106,0.9109266,3.5084612,-15.213739,-0.1012741,2.5025632,-0.5677333,2.3459578,-5.5470424,1.6151142,1.8796566,0.1753054,1.0988854,2.9680738,2.1562953
0.4650000000000003,0.02364348087635277,0.7539617656719956,-1.4050030316940696,0.055092566199532164,0.6042771878826307,-1.4157178492479465,-0.011367309345622882,0.7034137062788829,-1.4284299822504745,-0.10878409936938156,0.8927035967138562,-1.4174972145889941,-23.7,-3.5224291736603384,-14.477335044445972,-23.7,6.3041024953354174,-45.43,-15.026673258370554,11.338514619675228,-45.43,-23.7,1.7057447305828166,-45.43,-0.07178154799894537,0.23244675718227037,-0.18627053354408796,0.43567687,-2.7063022,-0.8840219,-0.5102901,-1.0839956,-5.5181446,1.7177641,-0.36666107,-0.79596627,-1.9273523,-0.6312858,-5.6956124,-1.5996422,-0.29264605,0.13352701,-3.15505
0.4700000000000003,0.02435007676743181,0.7681666540507622,-1.3750041103765807,0.06044807319293505,0.5721967814336703,-1.3862710190982266,0.004728968974395816,0.687911830431565,-1.4447385054824564,-0.1024917516526153,0.9146045441775705,-1.401581746932137,-3.145661193242951,15.54313520207774,45.43,17.614441894461507,-23.7,45.43,23.7,-13.35523505882917,-1.887720322588514,23.7,23.7,45.43,-0.07597360437353845,0.23418272909614313,-0.18804565389881445,-4.906414,-0.5907954,2.0385146,-0.14060958,-2.7060041,2.2948618,0.9434842,0.6180632,-1.4690669,-0.04682813,1.2436006,0.8410709,-1.6435816,0.2684403,10.070116,2.4743607
0.4750000000000003,0.01482052697788855,0.794193331947086,-1.383698785766927,0.05197363445523716,0.5612289415981392,-1.4000248497010623,0.008088768863499303,0.6708778441056734,-1.474918929356242,-0.0890230386949379,0.9367756915472721,-1.3866415349272132,-9.226871367992846,18.06216292433053,-24.277520536927717,-23.7,15.169611423013711,-27.626469450009587,-9.925747223153923,-10.859375578260043,-21.129014048182537,22.32477341740595,8.007851028481248,6.547150439891887,-0.07458793195602897,0.23803015351238077,-0.18910454707322683,-0.2674669,-0.60459983,1.021205,-3.800635,-0.59721106,1.7292907,1.8232288,0.19180071,-2.2423925,1.1363543,0.23850545,2.2379684,-0.58973694,1.8853313,0.40712166,0.05634439
0.4800000000000003,0.020880027914975244,0.8118181029030818,-1.3959061131615318,0.04973010029905508,0.5498176835676855,-1.3693557408438266,0.02559222440235998,0.6359827934831986,-1.4452347421545388,-0.08776833903356573,0.961597133927499,-1.3706412035396147,23.7,-5.282234374094948,-11.543768608064505,9.929935885654656,11.170590287387608,45.43,15.199153415045416,-23.7,45.43,-23.7,16.254628845599434,6.548183121432885,-0.07668445369084809,0.24027698336594594,-0.1899239962358536,0.8071919,-0.5127317,-0.43225735,-0.03583157,2.056917,0.9270109,1.2818831,-2.6669564,1.3785795,-1.3987398,0.67224884,4.3396654,0.9375308,0.43746316,0.14968303,0.0797025
0.4850000000000003,0.011798547773647803,0.8367523796034751,-1.4090836081841835,0.03425091222330574,0.539335831168143,-1.3788359037118707,0.015601905269695402,0.6187942929349746,-1.4521535962085486,-0.10328905548838406,0.9741799385686086,-1.4008395503898112,-12.398864557412107,21.21856434948579,-3.642522876332002,-13.712128152735442,-23.7,-30.846456775946073,-23.7,8.236882044196385,-21.28871333380969,-16.45027816865907,-22.262097245825345,-45.43,-0.06788808280555961,0.244032959126121,-0.19295921441708277,0.034846112,-0.054317236,-0.4297073,-0.5166202,-1.7984542,6.7783985,-0.11391838,-0.8024348,1.1496851,-1.9029772,-0.6496512,-1.8213753,-2.576832,-0.10959232,-0.18603063,-0.9093455
0.4900000000000003,0.027356877755760935,0.8619941387354564,-1.3726975887269572,0.035200334631316534,0.5260191261767385,-1.3628294847150666,0.017315535672457874,0.6038514595265257,-1.4340913717953134,-0.09291358188469763,0.9951110709260932,-1.4087645026995315,23.7,23.7,45.43,23.7,0.1611183841523136,33.17357337408119,-6.269575919356946,-0.5612191154737491,24.752805091209652,23.7,23.7,13.417412782873903,-0.07460108840751428,0.24567273478831053,-0.19624360398227164,1.7538404,1.2096745,1.7045798,0.086999446,0.52879393,0.61058044,-1.6014743,0.26762146,0.37659585,-0.39401683,4.830293,-0.84684676,-1.6933844,0.83900267,0.6801295,1.9423835
0.49500000000000033,0.028743420895287267,0.8779929217813497,-1.3916315383213258,0.02244068682432729,0.517008547937097,-1.3953508597409447,0.008166225631083674,0.593005272728611,-1.422227737474058,-0.09932305083193213,1.0011702601635768,-1.3668787402115237,-9.156785775199278,-20.64921426132327,-45.43,-21.12667599848463,-17.50972012242751,-45.43,-4.624610969865877,3.851547048099663,1.773605219875975,-12.843242205371556,-0.18695247901905243,45.43,-0.07223823850329568,0.25002214674880396,-0.19945108754288315,1.8535556,-1.0693994,-2.29385,-0.62076944,-0.49820673,-9.252785,0.06454706,0.594293,1.195399,-0.100388825,0.06129542,1.0995257,2.0904393,-0.18749335,-0.74355936,-1.7089478
0.5000000000000003,0.025045513512464226,0.8877806373132722,-1.367726804103176,0.023253977378648177,0.5037049364183975,-1.382364591776397,0.021313223807440877,0.571242074225126,-1.3980891994314386,-0.08227911594958978,1.029518770862948,-1.3896898800983284,-23.7,2.048766626783401,35.51587501788565,23.7,10.086909187854957,45.43,23.7,-23.7,13.454440597798307,23.7,17.79436270586688,-45.43,-0.0786758620924563,0.25076443313727736,-0.20124794580350314,-3.793631,-0.76319695,0.17639792,0.8899062,1.5639784,1.7321421,0.9715214,-0.66643703,1.1651279,0.0025463402,-0.4178745,-1.4690342,-0.5677134,0.121333495,0.05574256,2.2478185
0.5050000000000003,0.02219828949726019,0.9065694865994415,-1.3996049265376378,0.010601011676871178,0.49453321459909294,-1.4197127932185967,0.02238331956953663,0.5514591543375337,-1.4276426534391724,-0.07943102861982032,1.033834562956134,-1.3549827656744229,8.327196369545494,7.9465052048278295,-45.43,-23.7,-8.27689317298844,-45.43,-5.725318733458497,-17.297810415542475,-45.43,-9.155763683584517,-9.782086324426233,44.82755386943534,-0.08111252411449588,0.25498680174117405,-0.20354611631481112,0.10278198,-1.9393928,-1.1273773,-3.8860226,-0.19044821,-0.6573243,1.5401204,-1.2996634,-2.4118845,0.66262424,0.4163212,0.22531997,-3.148011,-10.548368,-0.062354483,-2.0235639
0.5100000000000003,0.014132403106164624,0.9291573633724968,-1.381372949808639,0.015495685413085766,0.47043257781819425,-1.4170211213699595,0.03818255539447776,0.5408919383747283,-1.4041838007301595,-0.05777144912365686,1.064018790436061,-1.3833557762691955,-19.22649104435598,23.7,40.0541184507571,23.7,-23.7,21.70874671335573,15.380287254053695,19.606780370047694,45.43,23.7,23.7,-45.43,-0.08961335385582768,0.2551919572056085,-0.20599511098676931,-6.6131644,2.200648,-0.290371,3.7423391,-8.094482,-1.369353,0.87585235,0.63798517,2.315339,1.49964,0.33063185,0.26781595,1.1873499,0.3424128,1.9042727,2.1891537
0.5150000000000003,0.01922683528610734,0.9397156872107456,-1.4096452649364881,0.02099957063132719,0.4480885903191255,-1.3865747583272348,0.03532250430173158,0.5270595878041918,-1.4335578514806728,-0.05810528409022875,1.0592125154568361,-1.347855324933131,23.7,-22.05777200717537,-45.43,10.056324715026173,4.837911694066779,32.689851572906626,-23.7,-23.7,-45.43,-23.7,-23.7,45.43,-0.09744981772181333,0.25818478205181505,-0.20948392340690236,0.3833789,-1.9996579,-0.12395334,0.9447596,-0.6998475,1.8283563,-0.38839793,-0.88260245,-1.1562616,-0.42950502,-0.31137663,2.092973,1.2463086,-0.8982061,-0.312163,-1.7920377
0.5200000000000004,0.014397495156555157,0.9525026293346328,-1.383213963433203,0.010799884859194456,0.45145580358174636,-1.3977364526003926,0.01746939435118656,0.520447696815315,-1.410182676873371,-0.060038174109391086,1.0828254521341274,-1.3769262580725279,-2.8625231307162853,23.7,45.43,-21.525250645328228,23.7,-25.396237933350186,-22.502171902397354,19.257322897660263,45.43,5.392592707454725,23.7,-45.43,-0.09345855224655256,0.25908222448831686,-0.2128233602587131,0.34848106,2.7959952,1.5969534,-0.3133966,1.2110822,1.8524767,-1.271393,1.8751523,0.85190964,-0.087579295,0.17294905,0.49755102,1.8908427,1.2832524,0.699196,-0.44058287
0.5250000000000004,0.021368272308506325,0.9684163057217228,-1.4123641382593668,0.022280880086652334,0.4378170096152254,-1.3920751985612256,0.024172407883654486,0.5022890374752557,-1.4004856243235373,-0.045308289072795445,1.0805072409411252,-1.34478792673972,1.8020855308415475,-5.586912137516492,-45.43,23.7,-23.7,9.847772127402386,23.7,-23.7,-8.428268381409175,14.63571113758498,-14.570775017880598,45.43,-0.10556626679318548,0.2624051017609683,-0.21592961129749283,-0.31219968,-2.449117,-0.41216588,1.2736928,-2.1385405,-0.090756655,1.1296865,-1.1600618,1.4944826,0.15965512,0.08440542,1.69436,-0.6194197,-1.020463,-0.9199653,3.8399181
0.5300000000000004,0.0258482016884371,0.9934389929365529,-1.4289429587935163,0.027450025508572732,0.43718633480773766,-1.3705211924404925,0.031743035037259185,0.5029165696569933,-1.3812135319853989,-0.04906911397924577,1.1043433518463703,-1.3739307759409698,8.593988385644709,23.7,1.77230983970518,-2.4624483839786606,23.7,25.649465416347798,6.904362226301025,23.7,18.41891097124535,-23.7,23.7,-45.43,-0.112521026428682,0.2605825285936576,-0.2190932530745482,2.28729,3.7110698,-3.4104657,1.8398138,0.8794352,4.2375817,2.931941,0.73388857,4.5374684,-1.3720114,-0.40723994,0.65713537,0.39889824,0.8558529,-2.441459,-0.3133303
0.5350000000000004,0.0303227498517147,0.998908980026757,-1.4563645351173429,0.02908514797236,0.4305712349210923,-1.4013663533600393,0.018204161350923873,0.4955795663255274,-1.4117666559247775,-0.062229974346681656,1.102263647309961,-1.3791377495671033,2.5395627051890735,-23.7,-22.167974112741803,0.6395640336119577,-23.7,-45.43,-23.7,-23.7,-45.43,-10.311145103497832,-22.059123631791525,7.362910683722681,-0.11430023720545912,0.26376140271125137,-0.22340080195845702,0.5537531,-2.0571516,-1.0816681,0.61954224,-0.37371135,-1.7858101,-0.698518,-0.46967024,-0.21366557,-3.4314032,-0.06625265,-0.78199327,1.2902143,1.1154983,-0.23649773,-1.498819
0.5400000000000004,0.020479239492444616,1.0109686795913349,-1.43126669321409,0.021781195676588254,0.4064853149495844,-1.3733366466712775,0.0221594702720033,0.48921325432508084,-1.385674288776534,-0.0683427926734966,1.1117716071673356,-1.3463302270624304,-23.7,23.7,45.43,-18.14305670766438,-23.7,45.43,23.7,12.050928500726307,45.43,9.79080352836748,23.7,40.518548026995816,-0.1157374472659251,0.26312137005287206,-0.2262773265935959,-20.350563,4.1766815,2.0312858,-0.46490344,-0.86646104,1.1158774,1.3332151,1.0149286,0.3043529,-1.4647472,0.12581527,1.0644907,-2.0140035,0.46798,0.7792195,1.8921566
0.5450000000000004,0.030526052894694393,1.0411979865747625,-1.4643823428147384,0.03690020729820036,0.4012613240682141,-1.4058639147427432,0.0336306784023148,0.4821871899632721,-1.4137359298340568,-0.058818098118523204,1.1245618382776126,-1.3705624799706007,23.7,23.7,-45.43,23.7,8.036719294762275,-45.43,5.069887668685977,-18.219124019491712,-45.43,7.601517074321562,-3.3089121834203503,-45.43,-0.12897023753509007,0.26449195497853073,-0.22966792488674492,0.77068555,1.2394924,-2.4041262,2.8399506,-1.2779831,-13.34512,0.6804316,-0.2634529,-0.330509,-0.5227078,-0.37562957,0.35807544,1.0905987,0.16720083,-0.88240784,-2.1306798
0.5500000000000004,0.03607010429513104,1.0397392611349556,-1.4326952194091833,0.03333344894845472,0.38908685491674916,-1.3935488964842817,0.027010308875618665,0.4576828682278889,-1.3831645836007869,-0.05256765335983372,1.130967625688674,-1.340627987047668,1.4651711826664524,-23.7,45.43,-23.7,7.118528279690874,45.43,-23.7,-17.599356114982704,45.43,11.443823978540966,6.20390687853739,45.43,-0.13138707357395218,0.26584196513551306,-0.23161190810973237,3.9069583,-1.2007571,0.32432193,0.40889072,0.48442513,1.134897,-0.8427958,-0.36913794,1.2742994,1.2456068,0.4032218,0.34861356,0.47158605,-0.51872927,1.6662469,2.0869744
0.5550000000000004,0.023002890213830115,1.0553278754789572,-1.4602443767324802,0.020830156982753333,0.3785725720583383,-1.3760883218671678,0.029432255470597073,0.45892145960352915,-1.3915060151297645,-0.05511828872456399,1.1612192913136898,-1.3711389304225658,-20.1700598923524,8.70391621741997,-45.43,-20.790834719542563,-7.933900136590996,14.694758128900535,23.7,23.7,-22.856329109065946,-12.39656739582895,23.7,-45.43,-0.13008231235686174,0.26368887467749325,-0.23264949118674771,-0.26860562,-2.36159,-1.0047708,-18.626087,-0.8402431,1.1337218,2.0630872,0.7030149,1.4149065,-0.25499788,1.2184345,-0.5510753,2.2146978,-0.276182,-0.7782636,-0.740368
0.5600000000000004,0.034404719006196016,1.0447940125474882,-1.4437491873868977,0.026645325595461948,0.38521895025345465,-1.4154121657217502,0.03385171620109555,0.4499606325722454,-1.4022054904019812,-0.0627480896204643,1.1640004989622095,-1.378122389032663,23.7,-23.7,28.362085127881695,20.872468575583742,14.248286817269678,-45.43,-0.8266626334613596,-19.850204593399024,-7.86908951470291,-12.218268883644868,-23.7,4.7426249334850965,-0.13436881748441162,0.2640540341472355,-0.23480409287255963,1.13822,-0.8860036,-0.39194542,-0.04989317,0.1348046,-0.35026786,0.33034125,0.02687827,-0.41067886,-1.3340347,0.4683684,-0.8461054,0.6165553,0.12739915,0.12654717,-2.4365797
0.5650000000000004,0.03625923293987224,1.0501988461833607,-1.4367065225723668,0.01602141325569507,0.3669711579947533,-1.3927364835931078,0.020863274369063038,0.43459803836642424,-1.4350225942813748,-0.07472174341858973,1.1509674051642411,-1.3473523147271174,-1.6998015598493907,23.54800013831017,1.4562720977348889,-20.31979357184077,-23.7,45.43,-23.7,-21.434084724777755,-28.45223246557829,-1.3212613206509332,-15.002789663139303,32.93928437897662,-0.13362294212706524,0.2658936848121112,-0.23720522041278488,5.538056,-1.1948311,3.6282427,-0.21859054,-3.9397323,2.477071,-1.8176796,-2.3543558,-1.0996046,-6.964899,-5.4951057,0.8038388,1.958847,-0.06556189,0.008829594,7.2544928
0.5700000000000004,0.043573062323618086,1.0480670419542957,-1.4119193287900684,0.025079857382026075,0.3699018624219743,-1.3904230588949722,0.0316249241068288,0.4294314713441654,-1.4153793814108147,-0.07081757793884001,1.1630930322781587,-1.3775695111769897,-0.3655800374548397,-10.440568844579738,19.26527010774204,23.7,23.7,-4.897663377541512,23.7,23.7,43.52029567322692,8.893354512056455,16.358430125014,-45.43,-0.14100137049611283,0.26409202359239536,-0.23895963925118252,0.2595452,-2.6887178,1.0676059,0.78762233,0.5066066,3.9716363,0.6022449,2.8674946,-0.4703109,-0.9849906,-1.0390087,-0.39445567,0.28726423,-0.15907621,-0.29678267,-1.8836457
0.5750000000000004,0.04695897630643453,1.0594121585773975,-1.4406835679756693,0.021083113696135036,0.3655661419968374,-1.3885630216060652,0.02800276341642375,0.4182092388087635,-1.422492107478511,-0.08004762051152564,1.1535382420737212,-1.3945048678705212,5.505190012522192,3.1662050052419453,-45.43,-19.732400462545588,-23.7,3.425539847079092,-11.418514628540043,-17.043280574002143,-21.01038469842553,-13.30501102943565,-23.7,-3.367726519086311,-0.14290240243554786,0.2657632029641033,-0.24125038076998367,2.3804243,-2.5403938,-3.1610224,0.070996985,-1.1636485,0.2835354,0.5931406,-0.71831083,0.45364368,-0.56407565,-1.4557188,-2.6434283,-2.3923502,-0.8210142,-0.19341749,-1.1618633
0.5800000000000004,0.03918320728536043,1.063818528801349,-1.4228671944079492,0.015229201485466047,0.3695629913430657,-1.3827643686343158,0.022800495258832324,0.40666139435546883,-1.3935095807279934,-0.0839204732025639,1.1581243543090396,-1.377829127560763,-23.7,5.403205439075775,45.43,12.52241500042906,23.7,21.225111176240787,-9.10465101580112,9.47324030397519,45.43,9.177728566863241,23.7,31.77495232070858,-0.1421422341331331,0.26309864559809437,-0.2428932224590405,-0.8929174,0.35486484,2.2142837,0.31213692,1.4638033,0.65142864,-0.5395903,-0.23316215,1.3037201,-0.7614989,0.7679963,0.3290388,-0.547946,0.6866017,1.4217119,1.2538664
0.5850000000000004,0.04935534610991284,1.0748432561711765,-1.4458236380948752,0.029704635343279287,0.36756823311271836,-1.42347888714637,0.035128852212462675,0.40086980467077454,-1.3929341369334398,-0.07477835306642092,1.1464423453863961,-1.3703450444987504,12.697016109016305,-15.156475682753618,-39.511890003589116,23.7,-23.7,-45.43,23.7,-5.008568174242129,-16.33862436894899,5.183123502796631,-22.48642719306585,-6.9840389227267465,-0.15497096012442882,0.26397812864965564,-0.2454859194905246,0.014127855,-1.2729498,0.23507833,1.2205502,-0.96930677,-3.43361,2.152143,-5.752751,1.9776206,-0.4929788,-0.8961977,1.6878821,-0.4788475,1.6605058,-1.4891546,-1.8014214
0.5900000000000004,0.03588062587935646,1.0830078495294346,-1.4310313721832397,0.01973258758739264,0.36793813174889956,-1.4181426524457192,0.02192495668067624,0.4173656052282343,-1.4113654367574415,-0.09630589503098846,1.1482445715634464,-1.3692063673017787,-23.7,15.920987438766263,45.43,-23.7,23.7,45.43,-23.7,23.7,-15.070631417634658,-23.7,8.98497814800831,-1.6463404474662013,-0.14773367439410814,0.2584862768140259,-0.24756288735441492,-2.7232525,6.4674873,0.6506767,0.24334681,0.7808085,1.2506254,-1.023325,0.7120193,-0.2288008,-5.0112906,-0.90673304,0.7367067,-1.570755,0.06412512,9.662118,1.8641989
0.5950000000000004,0.04366335381860669,1.097740185320841,-1.4634677122447304,0.016491161736074053,0.3685643209946411,-1.4592801203957837,0.01999055031308441,0.42743591086008337,-1.4235610726424501,-0.08554564563147697,1.161487356518789,-1.375923223636847,23.7,-10.822319883021077,-45.43,-6.3904751122896215,-7.225504899458608,-45.43,16.865506413358396,-10.706873557161895,11.611365190701903,23.7,23.7,-3.1472204233899497,-0.15076869906098328,0.25866205807879306,-0.2480179544148181,0.5950274,-0.24772406,-1.4341726,-1.8138571,-0.42249715,-3.0772681,-0.28221422,2.5148463,-0.5258395,-0.9408251,2.0894208,0.43386766,0.6676251,3.7291589,-1.5662463,-3.264903
0.6000000000000004,0.035437148472813054,1.094532646675116,-1.4716458712516833,0.01429776507994946,0.3470580734141928,-1.4384286069803582,0.008603801354449239,0.42739744613089375,-1.4174633301986008,-0.09417133064189248,1.1634273417793353,-1.3689299927516834,-23.7,-23.7,7.985147274070847,23.7,-19.323369971089292,45.43,-10.831745912562564,-23.7,45.43,-23.7,-2.8069404463573377,9.090175291428341,-0.14322793343981616,0.261656569772742,-0.24841252235497618,-4.3800664,-2.4246776,-5.608904,10.947367,-3.3906624,-0.72981334,-0.5095469,-0.87160695,1.483788,-2.3263073,0.9414686,0.3492944,1.8891705,-0.08836725,4.804013,0.020752907
0.6050000000000004,0.026756284879577222,1.0891717500654157,-1.4599428403222898,0.005631174748408425,0.35137469443188657,-1.4749161244531372,-0.0030142508074202656,0.428946896586132,-1.410636812555515,-0.09724130518942595,1.1637017667885567,-1.407242888826593,-4.1700020731956435,5.500127118996283,26.774742764280248,-21.330768448038228,23.7,-45.43,20.44148873506788,19.76922277342308,33.07101807591118,3.556288337312754,-15.55248002590282,-45.43,-0.13467654774135854,0.2660321130711836,-0.24846945945331797,-0.74542123,-0.28391564,0.46982187,-1.743135,-0.38176963,-4.5738797,-0.037292987,0.7467997,2.54119,-1.4455398,-0.44712618,-3.4809132,8.681171,1.0942295,-0.122682154,-1.3054677
0.6100000000000004,0.037040967794895276,1.0820613087451978,-1.4477431059481791,0.019026739246757414,0.33250056487894003,-1.4487994507526398,0.0010907931396086775,0.42716842688645845,-1.402120905977371,-0.06925887111288684,1.1674283879937921,-1.4197064545916258,23.7,-8.954012707253288,9.660148559759264,23.7,-20.41208055846384,45.43,23.7,-22.63495964897734,31.19871958306269,23.7,19.7223423825893,13.562007418796199,-0.14313218306628778,0.27358188642628956,-0.24745660909776118,1.3447357,-1.874478,2.6463923,0.72188413,-5.8507414,1.3483391,1.2131381,-1.5496743,2.1078596,3.122195,1.518863,-1.9871831,-0.062008947,-1.9460042,2.146836,3.8378222
0.6150000000000004,0.038638457104389574,1.0896518071662353,-1.4814983802494184,0.022692804587112814,0.33199325498084264,-1.4424231880459333,0.0002519865016634423,0.4307284790573705,-1.417632785960351,-0.06780074704931088,1.1528468719028206,-1.4217750723910663,-0.06442119437527083,-7.142763289061904,-45.43,-5.502844337124088,23.7,-3.3159820556915633,1.6680665568091086,-5.209119637194814,-22.913271930018325,-23.7,-23.7,0.5672403909191024,-0.14515698856175643,0.2818128597626026,-0.2464176895712701,1.0409524,-2.2884154,-0.35862255,3.605514,-0.9492849,8.793211,0.4428808,-0.65429246,-0.10347721,-1.7564429,-0.5433823,-0.17000036,-3.183865,0.51472825,0.1386745,-1.3916365
0.6200000000000004,0.03949832108765535,1.0840192101171344,-1.4773260967568125,0.01934517612919181,0.32654870447923146,-1.4226183634346807,-0.00681087476567957,0.4297290275963244,-1.4166957177644794,-0.07818168932792009,1.1461378075456232,-1.4678716636088762,17.10910548483302,7.629611296935639,45.43,10.738105424786822,-1.6430607830523272,35.75744969206733,-22.515515188536444,-1.8776507399312274,45.43,-19.36824360796025,-1.7458661527047177,-45.43,-0.14181740935817694,0.28840885220011514,-0.24661576461011536,1.6904033,2.7091765,0.8271759,0.8779513,-0.902218,2.1878889,-1.2188901,-0.15227467,1.5848566,-3.0412884,-4.471052,-0.73258835,-8.370806,1.7125161,-3.6365523,-1.1912707
0.6250000000000004,0.04038898178280542,1.0870974202101302,-1.5113829067559394,0.022465935883851026,0.3298544884248749,-1.4130582386337665,-0.0008289221923679282,0.438749664967068,-1.42847293718797,-0.07088011025317809,1.1325138036779765,-1.4617794146230982,-7.63719887079724,-6.3396737746088565,-37.62113986870241,5.916443885082696,20.348584392381134,7.130457645623139,13.4958548150573,14.268914184974017,-10.512695644981294,20.76364056684809,-3.465904883377518,34.5020782718474,-0.1471052226423008,0.29456598168856574,-0.24569907142145325,-0.100988105,-0.6223504,-0.39535356,0.06672928,-0.5206282,1.3156334,-0.037349194,0.033319473,-0.20595205,-0.34777182,-0.32983166,-1.480103,0.16440582,1.0819905,0.09952019,-1.4398892
0.6300000000000004,0.03409099217987314,1.0652359162978586,-1.4896417066502972,0.01132101170965641,0.3436959899505515,-1.4525741092165605,-0.004683759292492167,0.4393101697808033,-1.4170531616710964,-0.07558285380558702,1.1425939976545512,-1.5069563161156354,-6.587519437974359,-23.7,45.43,-19.410936699927554,5.665965237452186,-45.43,10.889540929438715,18.822752819900806,45.43,-13.51220909175306,21.026427494324185,-45.43,-0.14047985260684054,0.2998128031429317,-0.2443280760467254,-0.048522502,-0.67728543,2.694085,-0.44473165,-0.49687815,-1.3809888,0.97692984,2.4389544,1.1865112,-0.26918757,0.17167908,-0.7538984,2.0101326,1.9122137,-1.1651086,-0.3314852
0.6350000000000005,0.02579026286349173,1.0672873657500779,-1.4905524392482155,0.011408638940845527,0.34521174512489833,-1.4579940870397807,-0.005560525562544116,0.4392929336705485,-1.4184416025033884,-0.06201402450573508,1.127428963602646,-1.4945129346699364,-14.174382091877458,23.7,-8.497037235797329,23.7,-7.724735940420136,45.43,-13.114263687964392,-9.076301820268087,-7.565706436181031,23.7,-23.7,36.21062690709551,-0.1461632894676425,0.30495546809873186,-0.2438389961818293,-2.172703,1.025136,3.7137988,0.41258067,-0.22564805,1.6157042,-0.8841171,-1.9086597,0.31168216,0.35872725,-3.8777869,-2.5492885,-1.0729295,-0.9170671,-8.5327425,-3.0367937
0.6400000000000005,0.02903994050912037,1.0781698022862096,-1.5270056990811904,0.0005127875104118836,0.36463998269282094,-1.4926469865958718,-0.001329942721599268,0.4565848342405617,-1.4624144915693982,-0.06582998622352175,1.1247591789764806,-1.479295187688087,23.7,-2.329679427980089,-40.39915210838167,-23.7,23.7,-29.23270550159821,14.736823927334047,17.48960624605945,-41.251027937093944,-23.7,17.085345560671076,10.43660042761227,-0.15015906990175268,0.3087495045376949,-0.24247957990130017,0.57524914,0.4582083,-0.6981715,-3.132263,0.91935974,-13.664133,0.53676283,-0.041061312,-2.255454,-0.94062054,0.07830187,1.1108034,-0.8355695,1.8112285,0.32216516,-1.4791086
0.6450000000000005,0.0455224835973793,1.0677128836484446,-1.5270067362327882,-0.0013232375149968005,0.35687541093874986,-1.4638000614725422,0.011915703520680044,0.45665696978046216,-1.4439457583103665,-0.048179277815168314,1.1267273120733203,-1.4682993885318545,14.545340544995534,-23.7,20.491257962782505,10.221974853764763,-23.7,45.43,4.36035673141234,-3.7053181829391804,45.43,23.7,6.211348984540791,3.2381931938238964,-0.161349307380247,0.31327414662872144,-0.24106826040699597,5.2965636,-0.8283119,-1.7376448,-0.47551727,-3.0260785,0.68415797,0.5458742,0.4834751,1.6526523,2.035624,0.7774812,1.2085464,0.95183474,1.843926,-9.155902,2.4097083
0.6500000000000005,0.03921899506773423,1.0703802573135948,-1.571836125981466,0.004571150024213535,0.36703493059401593,-1.4589912859160132,0.014182555979131754,0.46488971319095124,-1.477792715991012,-0.051670272203623385,1.1312838430901673,-1.5045493181085932,-23.7,-1.8513566380588067,-45.43,23.7,23.7,-6.091615993187283,-4.185650131983138,-1.677205779237628,-45.43,-23.7,-6.212860445087792,-45.43,-0.16655379557070188,0.31582525058300104,-0.24022683571514797,0.47670153,-0.34435204,-2.8643444,2.7927513,-0.8758985,1.4358739,1.3258835,-1.1787074,-2.1820447,-0.16907963,0.76915187,-1.1597888,-0.3274411,0.2875643,0.22593994,-2.0576422
0.6550000000000005,0.02474471632388611,1.048836242104265,-1.5501861314359409,-0.0023831476627973244,0.37442350379871875,-1.4318887988190179,0.0052856369613404515,0.47204054994402495,-1.4548445722851846,-0.05804330731136541,1.1156947740019714,-1.4786947091672444,-14.858487982443052,-23.7,45.43,-18.07739390929749,23.7,41.58846088449472,-16.66391304077945,15.430463631842912,45.43,8.711035116524705,-20.701538661396743,45.43,-0.16456206282620314,0.31752235080169733,-0.2385489454343336,-4.7931676,-0.8274399,1.7682921,-0.2394544,2.9060345,1.3430548,-0.4453805,0.32788986,1.4949963,-0.1516631,0.51282024,0.436818,-1.4474537,1.0857801,-2.311915,0.90259784
0.6600000000000005,0.034582251489311794,1.036129392583676,-1.5404039330613395,0.015973482723900326,0.3865432061219928,-1.458529361461713,0.014243626790717607,0.4932622705928678,-1.44980692875541,-0.042137454979150474,1.110642506275089,-1.5085785203341666,23.7,1.0884648736953864,-2.7909855020079917,23.7,-2.5035554547399492,-43.65560320364872,14.64983126982452,23.7,-5.493054892147796,16.07531850831769,-2.2828682213975355,-45.43,-0.17682254945095716,0.31936244250402934,-0.23759129537161278,0.23014829,-5.0478764,2.3739984,9.176861,-1.2385728,0.1633476,-0.10572611,1.4289049,0.7699574,-0.109064,-0.35761973,0.26106575,-1.1120387,0.49790603,-0.7028508,0.31034338
0.6650000000000005,0.020076827273420562,1.0282152868985854,-1.5258018013915122,0.007190674968794528,0.3818819252250838,-1.4409381797214378,-0.000275233614524863,0.502027745487342,-1.419210462385121,-0.05715494863021764,1.0969260371881193,-1.5198754830067802,-23.7,3.089853669646295,12.579570536300306,-23.7,-10.361156430505897,45.43,-23.7,-4.335840005100881,28.504333866160884,-23.7,-11.974790596047407,5.215207082978488,-0.17040066808504412,0.32021306873957456,-0.23644479233992916,-1.7288845,-0.10457119,0.8382972,0.28073958,-1.0920476,1.8111391,-4.0434685,0.47262698,0.74001014,-0.15978843,0.2201474,-1.1539164,-0.9001834,-1.1746457,0.0840694,2.4985886
0.6700000000000005,0.028976930181516557,1.0184030150821135,-1.5082936886177656,0.027439560262056,0.3954596788200276,-1.456267539089597,0.011353835603162925,0.514705201527641,-1.4381769366718695,-0.04423459794634739,1.0692140071794396,-1.4801729842142,23.7,-23.7,8.807150474679922,23.7,23.7,-22.067251471602546,23.7,-2.1208673487312115,-38.67652491674852,23.7,-16.1735010871189,45.43,-0.18438548898063412,0.32172762345169215,-0.23475604307353015,1.2249917,-2.15687,1.1341195,0.43213332,-0.68143,0.19860286,-0.02597633,-0.5672871,0.45336992,-0.15118088,-0.626847,1.4782381,-0.86454326,5.481363,-0.18945503,-2.0657465
0.6750000000000005,0.008494283875670035,1.0229980312327644,-1.5011683992225209,0.015804801321106482,0.40194486703182886,-1.4731189260262438,0.00046970099661980576,0.5033638915251697,-1.4067572039687388,-0.057572900254696774,1.0661974361038302,-1.5051141732088233,-23.7,19.59959658004431,1.2480777106260703,-23.7,-8.516829527202407,-9.149461751064742,-23.7,-18.640786688674115,45.43,-23.7,14.290968576314006,-45.43,-0.1753136844828741,0.3231572836412626,-0.23294834473950488,-0.9364495,1.6238976,1.6354243,-7.382461,-2.7571254,-1.6229024,-1.7921143,-1.0926936,1.4015687,-3.3450246,-0.5201285,-0.4513693,-0.11216052,-0.39005187,-3.908595,1.099507
0.6800000000000005,0.013888600223918348,1.034346210519061,-1.5342646201907317,0.022201910787808546,0.40643647909806496,-1.441788711512687,0.005433313983947536,0.5121356458017124,-1.4098954655154168,-0.044524053379681426,1.047252923765264,-1.5128609638492485,23.7,-23.7,-45.43,12.63983843067554,16.05543985861142,45.43,7.9693553699683,23.7,-17.174427477095612,23.7,-23.7,4.173586960195017,-0.18410140108032808,0.32545988738586673,-0.2309606677762766,-0.45716098,-3.1784005,-3.0997522,-0.38513327,-0.65347016,3.3216941,-0.5835613,-0.6112156,0.9909783,0.28098845,-11.523599,-0.79795367,0.15262517,-1.1610205,-0.52018535,-1.776722
0.6850000000000005,-0.002586155863522047,1.0294069988306296,-1.53749619746139,0.003376301748159078,0.4272726629828216,-1.4394937788521671,-0.011886450321595327,0.5166285413080578,-1.3860309115679024,-0.06147516729162039,1.0279896483028486,-1.5540384433079726,-23.280837655943984,-23.7,14.267756942349891,-21.708162847489305,23.7,-13.130410862700003,-23.7,23.7,45.43,-23.7,-17.79638863299853,-38.57146934736976,-0.1703283672919195,0.32732239204910374,-0.22919656598485852,-0.46320724,2.6222959,-2.4284523,-0.28772515,0.1989588,2.4248376,-1.0738367,0.26238602,1.3211145,-0.51487476,-0.9890349,-1.9905066,0.7679915,2.1412199,-0.9262289,-0.076499484
0.6900000000000005,0.007063191816250229,1.0099045008950123,-1.5087448351967203,0.007244519829023698,0.43082233181604346,-1.4053679145175144,-0.004792706956661759,0.5269898609214784,-1.3767793103627275,-0.05368171342207232,0.99455862613536,-1.5447493915151624,23.7,-23.7,39.036172381923265,23.7,-8.026912823436342,44.640605825724414,17.45185446442998,5.967100873268233,-3.8449234766908944,17.56118431443582,-18.288159922219,32.47770998669764,-0.1782078492667904,0.3276121089091997,-0.22788514940028776,3.717129,-1.6544497,0.8512985,1.3468435,-0.5883133,1.8139621,-0.7826265,-2.4421635,2.4966574,-0.94163,-2.8082185,-1.2683223,-1.9925671,-0.93721384,-1.4913889,-5.588749
0.6950000000000005,0.0037767393770042584,1.0207790566400226,-1.534956692057081,0.015413952501805293,0.453668212985143,-1.4116423981824484,-0.007096645649141512,0.5399004554671869,-1.3654601699488995,-0.03966639050627981,0.9928486568853281,-1.5899029531958897,-10.338703991186195,19.359388967217832,-45.43,15.457255096764936,23.7,-22.525769598166427,-23.7,23.7,24.363896245310286,13.263120361714542,23.7,-45.43,-0.1797229343741102,0.3270897820847576,-0.22599727596662533,0.41706556,0.6090058,0.065078884,2.504762,0.5784223,2.0525546,-9.708905,2.3780737,7.9620495,1.6704339,0.47086,-1.382061,3.1601243,-4.4359727,-0.041192256,-0.81704974
0.7000000000000005,-0.007696042153029808,1.0198104847438936,-1.545205796967801,0.0157274903248216,0.4647790130701481,-1.4005429983732707,-0.01818609885136488,0.5520874701849524,-1.36995961727731,-0.049552217428629454,0.9659945866581012,-1.56918525208989,-17.76864210917386,-23.7,0.8438087418514755,6.0836124542216545,-2.440597815890918,34.82847595723378,-9.378211835745606,-3.446436750877382,-13.683810369528363,-23.7,-23.7,44.221844496465486,-0.1766225983571288,0.32582071453629946,-0.22463821956181662,-1.0204087,-3.5160954,-14.214986,1.0733243,-0.30440494,0.47258848,-0.6312079,-0.8214171,0.28093505,-1.0020304,-2.1590126,-2.1731842,-0.45524505,0.02998428,0.03309101,0.48375297
0.7050000000000005,-0.003709215132961463,1.0016022533913573,-1.512765512627965,0.008117631686717783,0.49408088146782275,-1.440897039041752,-0.024719831747263724,0.5478711897079752,-1.3449888448364935,-0.05210883347974756,0.9614481970157489,-1.5646877517966835,23.7,-14.884924344628676,42.83033623485581,-23.7,23.7,-45.43,17.073384148845417,-4.741756791529074,45.43,0.7178585931872732,23.051386732183612,-3.6302480009708944,-0.17293559360589256,0.32563023409631975,-0.2218803157313458,0.37098002,1.4106041,0.6014112,-1.412828,0.9588657,-11.000025,-0.30519617,-3.0579677,10.723587,-2.1083345,0.18918669,0.88921845,0.38090575,4.228458,-8.648767,-2.228277
0.7100000000000005,-0.01236432261052792,0.989719743558116,-1.516540625840012,0.0075944363193345375,0.5119301204979828,-1.4335113188411104,-0.034517477285005385,0.5635977954714231,-1.3489490792084433,-0.06317017193663219,0.9468112784542329,-1.5495901702488197,-23.7,-23.7,-27.528457725173958,23.7,16.89666568462405,45.43,-7.807076189696678,23.7,-14.687124397169931,-13.729359393568286,-17.385355984784226,9.643234430845286,-0.1705816742383322,0.32275082702180224,-0.21931316917978522,-2.5041487,-2.4109354,5.0820675,0.5578678,3.6665263,0.8596074,-3.315671,0.84592175,0.9113162,-1.694677,0.45886815,0.47378165,2.2529666,-1.2696946,0.054579057,3.070765
0.7150000000000005,-0.007309470860973189,0.9607890466840796,-1.4778719561077407,0.02272914102199039,0.5369794012063256,-1.4742954580716405,-0.03809182163044074,0.5947227704444441,-1.387545285222895,-0.05160511783958186,0.9295366613698655,-1.5833223466842739,12.251494686402207,-23.7,45.43,13.45282721936275,7.972066481001917,-45.43,2.388932509418904,23.7,-33.66032413501956,23.7,-23.7,-45.43,-0.17689499238557546,0.3202632902503826,-0.2175114725980016,-0.24886096,-0.8624955,1.1813562,0.5387651,-0.3782834,-1.2194195,-0.88840735,1.0741973,-0.7847952,-0.10853195,-1.2076886,-1.5137575,2.433775,0.4688884,1.2774507,-0.64656293
0.7200000000000005,-0.01099244225829471,0.9508299269512251,-1.4953914447447598,0.018476089070732726,0.548097644402973,-1.4522341619390566,-0.03275423507363969,0.5982121807154036,-1.3674108585845617,-0.059520598898949034,0.8945176421336303,-1.5790148425035084,-7.082781094731297,-7.39526167302305,-45.43,-19.457449361553905,3.8047592512421087,45.43,23.7,-9.670056286359618,45.43,-23.7,-23.7,21.386311781729567,-0.17887781157516014,0.31938609147787633,-0.21486125046338994,0.11543943,-0.96124053,-0.5424851,0.53354156,0.05084011,1.473918,3.7957706,0.23864222,0.6979421,-8.479106,-2.1007614,-1.7182611,-1.4651477,-2.8075242,-2.5087206,1.8047736
0.7250000000000005,-0.006805062423048025,0.9370536122241975,-1.480024026672876,0.03371005952882679,0.5717321709479112,-1.4841375288110754,-0.025848254339867,0.6214962962272693,-1.3752438661167654,-0.05929367855393926,0.8869419865440652,-1.5951274263249684,14.008565510729888,-0.36997367551670024,45.43,21.94062406555703,8.158969612510905,-45.43,0.4732929026738466,23.7,-16.037824138980685,4.155782915492576,23.7,-14.02423424626068,-0.18493032405460483,0.3145321030241679,-0.21237821598913179,0.254225,1.9796631,1.9293188,0.6244884,-1.0171659,-1.8823792,0.31186873,-0.44051492,0.63233274,-0.7234382,-0.3044637,-0.10010221,-2.4494798,1.4890656,-0.80574346,-1.1486812
0.7300000000000005,-0.020768456519067148,0.943427901406836,-1.5160082845555376,0.024510520705642,0.5807388065009543,-1.456108100275407,-0.020512663647567576,0.6391120499210924,-1.3456808800443985,-0.07614485679736205,0.8673268608664637,-1.6134882912516828,-23.7,4.625936170596852,-45.43,-23.7,-0.08606110648843046,45.43,12.99536253115727,23.7,45.43,-18.746971399341575,-23.7,-12.218491368123907,-0.18166330023381788,0.3098336651969249,-0.20954323998301094,-3.9866354,0.93369544,-4.487931,-2.2760541,-0.29509303,0.46535337,3.893756,0.941667,1.810091,-3.1722033,-4.0738244,-1.0689279,-0.3307654,-6.5927496,3.054451,2.7472668
0.7350000000000005,-0.006990705877340003,0.9237511690546422,-1.4903837754408835,0.03985608025102297,0.6080203364484812,-1.4880566706995786,-0.00961229872666585,0.6567313456884,-1.3667028820881058,-0.07245089928676524,0.8366067766758309,-1.6278208453360092,23.7,-23.7,45.43,23.7,22.27764032935226,-45.43,3.2294090241610895,-9.117709708627256,-41.116398769891745,17.05475878872964,-23.7,-5.630246764148694,-0.1897031352811193,0.3070379274669086,-0.20727903549376123,1.4539835,-0.14966214,5.1060305,0.40701675,-0.64811015,-1.0344265,0.47625488,-1.101228,0.55405414,-1.2508479,-1.4284961,-4.2989044,1.1297827,0.6476848,-0.551303,-2.1470408
0.7400000000000005,-0.01017634970613352,0.9185249385686278,-1.5202306349774746,0.028111923063113754,0.6072824876220515,-1.4563791206547927,-0.020572611874224746,0.6848851497252408,-1.391289525518703,-0.09161802756657414,0.8209012410338457,-1.5961094093699961,-3.75685092104618,1.659335472106708,-45.43,-23.7,-23.039880020348544,45.43,-23.7,23.7,-8.718861118903902,-23.7,23.7,45.43,-0.1860020238733476,0.30329015306301077,-0.20498276135148844,1.6076075,0.45173845,-2.603118,-1.2591751,-3.7522473,0.39883816,-1.7051818,0.90336996,-1.055589,-1.20248,4.5733976,1.6513373,-0.8952335,0.20492387,-6.822466,2.2922218
0.7450000000000006,0.00800773963696501,0.8940489805412085,-1.5169757071169203,0.03276044888286296,0.628064480928598,-1.4865603440620945,-0.013642162857549904,0.6821457787968698,-1.3547685854391633,-0.08459873230865288,0.8101453118682309,-1.5935545473133637,20.81170248872101,-23.7,18.699837215448788,9.694039823298597,23.7,-45.43,12.36119332181631,-23.7,45.43,23.158635326526518,-3.9469905228886244,-16.087063422784382,-0.190604703541203,0.3022417237961166,-0.20195312999373632,0.59325755,-0.47847807,-0.7772796,-0.49031672,0.6254575,-4.884448,-0.5170514,-0.8263474,2.912056,-1.0782334,0.21002117,1.6114289,1.0508475,0.20061576,-0.33482856,-2.653418
0.7500000000000006,0.007644371320443133,0.8598667108506252,-1.4801157500910074,0.03788892661557005,0.6514637634680469,-1.4617513042320944,-0.007944382834831254,0.7035881563136551,-1.3707926601599516,-0.09506919590393824,0.795994747989177,-1.6331737209471717,-23.7,-23.7,33.22140404079742,11.799915985725075,23.7,45.43,11.876330765915082,23.7,-34.73871066537695,-22.57098624723274,-23.7,-45.43,-0.19012329605808712,0.29677008137891514,-0.19855640360829716,-4.1299353,-2.4730241,3.4930048,1.1484814,1.7756734,1.9081278,2.979694,-0.39393032,1.376893,-0.6885762,-2.9378262,-1.3253695,0.9879558,-1.1815212,2.473743,0.76368904
0.7550000000000006,0.016451303446565403,0.8543947642437921,-1.5078808138099664,0.03305692718480652,0.6754033583215638,-1.4473467033324947,-0.015437684760299872,0.7351424129428232,-1.4032808383720006,-0.09626323020115395,0.7611378996888124,-1.6108251836956022,22.912103264446753,22.986119982087814,-45.43,-22.10042686023471,12.455294610591686,-0.9418814249253202,-23.7,23.7,-19.231516730563037,16.93653521991463,-23.7,45.43,-0.19298467969249178,0.29445793660586417,-0.19649465313291642,0.9981819,0.12804466,0.4877294,-0.36969137,0.08328393,1.1354594,-2.2311041,0.97134566,-1.2557532,-0.5402618,-0.71685266,-0.54271275,-3.1048212,2.562407,3.8776155,-0.25143296
0.7600000000000006,0.013362495439383278,0.8303461491679639,-1.4767690320671418,0.039892341495389685,0.6862155542212937,-1.4170981426845344,-0.006464079587869865,0.75782485113222,-1.375792649511646,-0.10190957283203288,0.7508192375529908,-1.6165757190179575,-23.7,-23.7,45.43,23.7,-14.741659840473485,18.08559366914792,23.7,11.4551111460983,45.43,-12.425239480431799,17.946577363966874,-16.26486000274057,-0.19435371949637606,0.28853409355330384,-0.1931160479567793,-0.2771734,-0.83026016,0.378259,1.0325031,-2.294297,1.0682604,1.4815233,2.4243028,0.67790717,-1.0648389,-0.47575796,0.5300423,0.27617127,2.319202,-0.56206924,0.34541285
0.7650000000000006,0.0037574138844424666,0.8312827422014956,-1.4881280252490259,0.05002521278971711,0.70975174844633,-1.4461776869907887,-0.0168007357419711,0.7982662792120454,-1.4079340622513643,-0.11294431849387851,0.7210508229385562,-1.572832827509924,-6.394638624514138,22.531820668312573,-25.490900176421825,6.810450472070489,12.284847344958596,-45.43,-23.7,23.7,-45.43,-2.986870697814652,-23.7,45.43,-0.19449496941688077,0.2839725411191374,-0.1914785637179331,-0.44158193,1.3750043,2.214941,8.143657,-1.3603735,-0.7571273,-0.8304338,1.7264724,-3.1738741,-1.1069199,-1.0709734,3.4556112,5.223352,-0.97667253,-0.6191654,-3.0354655
0.7700000000000006,0.0029354854017512545,0.8120541912119834,-1.459688125994548,0.055824856458225436,0.7106830347521631,-1.414434511664768,-0.018762823395536223,0.8055709368068168,-1.37526601791632,-0.10079956650766811,0.7222745315272968,-1.5968482046827621,6.60882415225044,-23.7,32.67341936498993,-0.7685792091394639,-13.766483785480265,45.43,-0.5469294591133256,-23.7,45.43,23.47782183497128,23.7,-45.43,-0.19650761992658136,0.2803785935166736,-0.188279066517586,-0.48210603,-2.8677158,0.37743413,2.1931992,-2.9515185,1.6416459,-1.0906878,-0.81057024,0.9816164,-0.3833931,0.6463391,0.548584,-0.8822937,3.4375343,-4.28782,0.33403194
0.7750000000000006,0.004952956653848596,0.7941412665557464,-1.4858573910202906,0.05117275206691347,0.7321429338228538,-1.443780597956951,-0.01244768712506031,0.8238388914219039,-1.4012198830136093,-0.10086813421469112,0.7036571871226962,-1.5902128134097877,7.242197294373171,-23.7,-45.43,-23.7,23.7,-45.43,23.7,10.758425586249349,-45.43,-12.96955755258314,-23.7,17.672363864510828,-0.19785906392718017,0.27862174731103684,-0.18491319333914014,0.28350082,-2.088464,-3.8232243,-2.3769517,-0.225992,-1.717604,1.767344,-1.8235338,0.26008862,0.08721816,-3.1002228,-0.75770146,0.93412703,-0.9136809,0.470083,-0.64980936
